;FLAVOR:Marlin
;TIME:1859
;Filament used: 0.634453m, 0m
;Layer height: 0.1
;MINX:187.683
;MINY:24.869
;MINZ:0.15
;MAXX:219.719
;MAXY:64.727
;MAXZ:9.95
;Generated with Cura_SteamEngine 4.8.0
T0
M82 ;absolute extrusion mode
;GeeeTech A20M start script
G28 ;home
G90 ;absolute positioning
G1 X0 Y0 Z15 E0 F300 ;go to wait position
M140 S20.0 ;set bed temp
M109 S200.0 ;set extruder temp and wait
G1 Z0.8 F200 ;set extruder height
G1 X220 Y0 E80 F1000 ;purge line
;end of start script
G92 E0
G92 E0
G1 F2100 E-0.8
;LAYER_COUNT:99
;LAYER:0
M107
G0 F3600 X187.842 Y33.558 Z0.15
;TYPE:SKIRT
G1 F2100 E0
G1 F1800 X188.04 Y32.793 E0.01971
G1 X188.314 Y32.053 E0.0394
G1 X188.733 Y31.219 E0.06268
G1 X189.008 Y30.744 E0.07637
G1 X189.535 Y29.949 E0.10016
G1 X189.866 Y29.511 E0.11386
G1 X190.51 Y28.763 E0.13848
G1 X190.895 Y28.369 E0.15222
G1 X191.569 Y27.756 E0.17495
G1 X191.998 Y27.409 E0.18871
G1 X192.824 Y26.824 E0.21396
G1 X193.3 Y26.532 E0.22789
G1 X194.134 Y26.088 E0.25146
G1 X194.628 Y25.862 E0.26501
G1 X195.513 Y25.521 E0.28867
G1 X196.036 Y25.355 E0.30236
G1 X196.982 Y25.118 E0.32668
G1 X197.53 Y25.017 E0.34058
G1 X198.469 Y24.902 E0.36418
G1 X199.01 Y24.869 E0.3777
G1 X199.954 Y24.869 E0.40125
G1 X200.502 Y24.902 E0.41495
G1 X201.484 Y25.024 E0.43963
G1 X202.028 Y25.127 E0.45344
G1 X202.931 Y25.355 E0.47667
G1 X203.449 Y25.519 E0.49023
G1 X204.348 Y25.866 E0.51427
G1 X204.847 Y26.095 E0.52796
G1 X205.702 Y26.554 E0.55217
G1 X206.17 Y26.844 E0.5659
G1 X206.943 Y27.39 E0.58951
G1 X207.373 Y27.735 E0.60326
G1 X208.085 Y28.382 E0.62726
G1 X208.467 Y28.775 E0.64093
G1 X209.087 Y29.496 E0.66465
G1 X209.421 Y29.936 E0.67843
G1 X209.958 Y30.744 E0.70263
G1 X210.233 Y31.219 E0.71633
G1 X210.594 Y31.921 E0.73602
G1 X210.882 Y32.657 E0.75573
G1 X210.975 Y32.991 E0.76438
G1 X211.919 Y32.991 E0.78793
G1 X212.708 Y33.031 E0.80764
G1 X213.488 Y33.15 E0.82732
G1 X214.253 Y33.348 E0.84703
G1 X214.993 Y33.622 E0.86671
G1 X215.702 Y33.97 E0.88642
G1 X216.373 Y34.388 E0.90614
G1 X216.997 Y34.871 E0.92582
G1 X217.57 Y35.414 E0.94551
G1 X218.085 Y36.013 E0.96522
G1 X218.536 Y36.661 E0.98491
G1 X218.92 Y37.352 E1.00463
G1 X219.232 Y38.077 E1.02432
G1 X219.469 Y38.83 E1.04401
G1 X219.628 Y39.604 E1.06372
G1 X219.709 Y40.389 E1.08341
G1 X219.719 Y40.791 E1.09344
G1 X219.719 Y48.791 E1.293
G1 X219.679 Y49.58 E1.31271
G1 X219.56 Y50.36 E1.33239
G1 X219.362 Y51.125 E1.3521
G1 X219.088 Y51.865 E1.37179
G1 X218.74 Y52.574 E1.39149
G1 X218.322 Y53.245 E1.41121
G1 X217.839 Y53.869 E1.43089
G1 X217.296 Y54.442 E1.45058
G1 X216.697 Y54.957 E1.47029
G1 X216.049 Y55.408 E1.48998
G1 X215.358 Y55.792 E1.5097
G1 X214.633 Y56.104 E1.52939
G1 X213.88 Y56.341 E1.54908
G1 X213.106 Y56.5 E1.56879
G1 X212.321 Y56.581 E1.58848
G1 X211.919 Y56.591 E1.59851
G1 X211.283 Y56.591 E1.61438
G1 X211.283 Y56.927 E1.62276
G1 X211.243 Y57.716 E1.64246
G1 X211.124 Y58.496 E1.66215
G1 X210.926 Y59.261 E1.68186
G1 X210.652 Y60.001 E1.70154
G1 X210.304 Y60.71 E1.72124
G1 X209.886 Y61.381 E1.74097
G1 X209.403 Y62.005 E1.76065
G1 X208.86 Y62.578 E1.78034
G1 X208.261 Y63.093 E1.80005
G1 X207.613 Y63.544 E1.81974
G1 X206.922 Y63.928 E1.83946
G1 X206.197 Y64.24 E1.85915
G1 X205.444 Y64.477 E1.87884
G1 X204.67 Y64.636 E1.89855
G1 X203.885 Y64.717 E1.91824
G1 X203.483 Y64.727 E1.92827
G1 X195.483 Y64.727 E2.12783
G1 X194.694 Y64.687 E2.14754
G1 X193.914 Y64.568 E2.16722
G1 X193.149 Y64.37 E2.18693
G1 X192.409 Y64.096 E2.20661
G1 X191.7 Y63.748 E2.22632
G1 X191.029 Y63.33 E2.24604
G1 X190.405 Y62.847 E2.26572
G1 X189.832 Y62.304 E2.28541
G1 X189.317 Y61.705 E2.30512
G1 X188.866 Y61.057 E2.32481
G1 X188.482 Y60.366 E2.34453
G1 X188.17 Y59.641 E2.36422
G1 X187.933 Y58.888 E2.38391
G1 X187.774 Y58.114 E2.40362
G1 X187.693 Y57.329 E2.42331
G1 X187.683 Y56.927 E2.43334
G1 X187.683 Y51.927 E2.55807
G1 X187.723 Y51.138 E2.57777
G1 X187.842 Y50.358 E2.59746
G1 X187.878 Y50.218 E2.60106
G1 X187.774 Y49.714 E2.6139
G1 X187.693 Y48.929 E2.63358
G1 X187.683 Y48.527 E2.64362
G1 X187.683 Y43.527 E2.76834
G1 X187.723 Y42.738 E2.78805
G1 X187.842 Y41.958 E2.80773
G1 X187.878 Y41.818 E2.81134
G1 X187.774 Y41.314 E2.82417
G1 X187.693 Y40.529 E2.84386
G1 X187.683 Y40.127 E2.85389
G1 X187.683 Y35.127 E2.97862
G1 X187.723 Y34.338 E2.99832
G1 X187.842 Y33.558 E3.01801
G0 F3600 X188.242 Y33.599
G1 F1800 X188.44 Y32.856 E3.03719
G1 X188.714 Y32.137 E3.05638
G1 X189.079 Y31.419 E3.07647
G1 X189.354 Y30.944 E3.09016
G1 X189.854 Y30.19 E3.11273
G1 X190.185 Y29.752 E3.12643
G1 X190.796 Y29.042 E3.14979
G1 X191.181 Y28.648 E3.16353
G1 X191.82 Y28.067 E3.18508
G1 X192.249 Y27.72 E3.19884
G1 X193.034 Y27.165 E3.22282
G1 X193.51 Y26.873 E3.23675
G1 X194.3 Y26.452 E3.25908
G1 X194.794 Y26.226 E3.27264
G1 X195.634 Y25.902 E3.29509
G1 X196.157 Y25.736 E3.30878
G1 X197.055 Y25.512 E3.33187
G1 X197.603 Y25.411 E3.34577
G1 X198.493 Y25.302 E3.36814
G1 X199.034 Y25.269 E3.38166
G1 X199.93 Y25.268 E3.40401
G1 X200.478 Y25.301 E3.4177
G1 X201.41 Y25.417 E3.44113
G1 X201.954 Y25.52 E3.45494
G1 X202.811 Y25.736 E3.47699
G1 X203.329 Y25.9 E3.49054
G1 X204.181 Y26.229 E3.51332
G1 X204.68 Y26.458 E3.52702
G1 X205.492 Y26.894 E3.55001
G1 X205.96 Y27.184 E3.56374
G1 X206.693 Y27.702 E3.58613
G1 X207.123 Y28.047 E3.59989
G1 X207.798 Y28.661 E3.62265
G1 X208.18 Y29.054 E3.63632
G1 X208.768 Y29.738 E3.65882
G1 X209.102 Y30.178 E3.6726
G1 X209.612 Y30.944 E3.69556
G1 X209.887 Y31.419 E3.70925
G1 X210.237 Y32.104 E3.72844
G1 X210.515 Y32.822 E3.74764
G1 X210.669 Y33.391 E3.76235
G1 X211.919 Y33.391 E3.79353
G1 X212.687 Y33.431 E3.81271
G1 X213.447 Y33.55 E3.8319
G1 X214.19 Y33.748 E3.85108
G1 X214.909 Y34.022 E3.87028
G1 X215.595 Y34.369 E3.88945
G1 X216.242 Y34.785 E3.90864
G1 X216.842 Y35.266 E3.92782
G1 X217.389 Y35.807 E3.94701
G1 X217.877 Y36.402 E3.96621
G1 X218.3 Y37.044 E3.98539
G1 X218.655 Y37.727 E4.00459
G1 X218.936 Y38.442 E4.02375
G1 X219.142 Y39.184 E4.04296
G1 X219.27 Y39.942 E4.06214
G1 X219.319 Y40.791 E4.08335
G1 X219.319 Y48.791 E4.28291
G1 X219.279 Y49.559 E4.3021
G1 X219.16 Y50.319 E4.32129
G1 X218.962 Y51.062 E4.34047
G1 X218.688 Y51.781 E4.35966
G1 X218.341 Y52.467 E4.37884
G1 X217.925 Y53.114 E4.39803
G1 X217.444 Y53.714 E4.41721
G1 X216.903 Y54.261 E4.4364
G1 X216.308 Y54.749 E4.4556
G1 X215.666 Y55.172 E4.47478
G1 X214.983 Y55.527 E4.49398
G1 X214.268 Y55.808 E4.51314
G1 X213.526 Y56.014 E4.53235
G1 X212.768 Y56.142 E4.55153
G1 X211.919 Y56.191 E4.57274
G1 X210.883 Y56.191 E4.59858
G1 X210.883 Y56.927 E4.61694
G1 X210.843 Y57.695 E4.63613
G1 X210.724 Y58.455 E4.65532
G1 X210.526 Y59.198 E4.6745
G1 X210.252 Y59.917 E4.69369
G1 X209.905 Y60.603 E4.71287
G1 X209.489 Y61.25 E4.73205
G1 X209.008 Y61.85 E4.75124
G1 X208.467 Y62.397 E4.77043
G1 X207.872 Y62.885 E4.78962
G1 X207.23 Y63.308 E4.8088
G1 X206.547 Y63.663 E4.828
G1 X205.832 Y63.944 E4.84717
G1 X205.09 Y64.15 E4.86638
G1 X204.332 Y64.278 E4.88555
G1 X203.483 Y64.327 E4.90677
G1 X195.483 Y64.327 E5.10633
G1 X194.715 Y64.287 E5.12551
G1 X193.955 Y64.168 E5.1447
G1 X193.212 Y63.97 E5.16388
G1 X192.493 Y63.696 E5.18308
G1 X191.807 Y63.349 E5.20225
G1 X191.16 Y62.933 E5.22144
G1 X190.56 Y62.452 E5.24062
G1 X190.013 Y61.911 E5.25981
G1 X189.525 Y61.316 E5.27901
G1 X189.102 Y60.674 E5.29819
G1 X188.747 Y59.991 E5.31739
G1 X188.466 Y59.276 E5.33655
G1 X188.26 Y58.534 E5.35576
G1 X188.132 Y57.776 E5.37494
G1 X188.083 Y56.927 E5.39615
G1 X188.083 Y51.927 E5.52088
G1 X188.123 Y51.159 E5.54006
G1 X188.242 Y50.399 E5.55925
G1 X188.287 Y50.231 E5.56359
G1 X188.26 Y50.134 E5.5661
G1 X188.132 Y49.376 E5.58528
G1 X188.083 Y48.527 E5.60649
G1 X188.083 Y43.527 E5.73122
G1 X188.123 Y42.759 E5.7504
G1 X188.242 Y41.999 E5.76959
G1 X188.287 Y41.831 E5.77393
G1 X188.26 Y41.734 E5.77644
G1 X188.132 Y40.976 E5.79562
G1 X188.083 Y40.127 E5.81683
G1 X188.083 Y35.127 E5.94156
G1 X188.123 Y34.359 E5.96074
G1 X188.242 Y33.599 E5.97993
G0 F3600 X188.642 Y33.642
G1 F1800 X188.84 Y32.92 E5.9986
G1 X189.113 Y32.224 E6.01725
G1 X189.425 Y31.62 E6.03421
G1 X189.7 Y31.145 E6.0479
G1 X190.173 Y30.432 E6.06925
G1 X190.504 Y29.994 E6.08294
G1 X191.082 Y29.322 E6.10505
G1 X191.467 Y28.928 E6.11879
G1 X192.072 Y28.378 E6.13919
G1 X192.501 Y28.031 E6.15295
G1 X193.243 Y27.506 E6.17563
G1 X193.719 Y27.214 E6.18956
G1 X194.467 Y26.816 E6.21069
G1 X194.961 Y26.59 E6.22425
G1 X195.755 Y26.283 E6.24548
G1 X196.278 Y26.117 E6.25917
G1 X197.127 Y25.905 E6.281
G1 X197.675 Y25.804 E6.2949
G1 X198.518 Y25.701 E6.31608
G1 X199.059 Y25.668 E6.3296
G1 X199.906 Y25.668 E6.35073
G1 X200.454 Y25.701 E6.36443
G1 X201.335 Y25.81 E6.38657
G1 X201.879 Y25.913 E6.40038
G1 X202.69 Y26.117 E6.42124
G1 X203.208 Y26.281 E6.4348
G1 X204.015 Y26.593 E6.45638
G1 X204.514 Y26.822 E6.47007
G1 X205.281 Y27.234 E6.49179
G1 X205.749 Y27.524 E6.50553
G1 X206.443 Y28.014 E6.52672
G1 X206.873 Y28.359 E6.54047
G1 X207.511 Y28.94 E6.562
G1 X207.893 Y29.333 E6.57567
G1 X208.45 Y29.98 E6.59696
G1 X208.784 Y30.42 E6.61074
G1 X209.266 Y31.145 E6.63246
G1 X209.541 Y31.62 E6.64615
G1 X209.881 Y32.286 E6.66481
G1 X210.147 Y32.985 E6.68346
G1 X210.338 Y33.709 E6.70214
G1 X210.35 Y33.791 E6.70421
G1 X211.919 Y33.791 E6.74335
G1 X212.666 Y33.831 E6.76201
G1 X213.404 Y33.95 E6.78065
G1 X214.126 Y34.148 E6.79933
G1 X214.822 Y34.421 E6.81798
G1 X215.485 Y34.768 E6.83665
G1 X216.108 Y35.183 E6.85532
G1 X216.682 Y35.662 E6.87397
G1 X217.203 Y36.199 E6.89263
G1 X217.662 Y36.789 E6.91128
G1 X218.057 Y37.425 E6.92996
G1 X218.381 Y38.099 E6.94861
G1 X218.631 Y38.804 E6.96727
G1 X218.805 Y39.532 E6.98594
G1 X218.9 Y40.274 E7.0046
G1 X218.919 Y40.791 E7.01751
G1 X218.919 Y48.791 E7.21707
G1 X218.879 Y49.538 E7.23573
G1 X218.76 Y50.276 E7.25438
G1 X218.562 Y50.998 E7.27305
G1 X218.289 Y51.694 E7.2917
G1 X217.942 Y52.357 E7.31037
G1 X217.527 Y52.98 E7.32904
G1 X217.048 Y53.554 E7.34769
G1 X216.511 Y54.075 E7.36635
G1 X215.921 Y54.534 E7.385
G1 X215.285 Y54.929 E7.40368
G1 X214.611 Y55.253 E7.42233
G1 X213.906 Y55.503 E7.44099
G1 X213.178 Y55.677 E7.45966
G1 X212.436 Y55.772 E7.47832
G1 X211.919 Y55.791 E7.49123
G1 X210.483 Y55.791 E7.52705
G1 X210.483 Y56.927 E7.55539
G1 X210.443 Y57.674 E7.57405
G1 X210.324 Y58.412 E7.59269
G1 X210.126 Y59.134 E7.61137
G1 X209.853 Y59.83 E7.63002
G1 X209.506 Y60.493 E7.64869
G1 X209.091 Y61.116 E7.66736
G1 X208.612 Y61.69 E7.68601
G1 X208.075 Y62.211 E7.70467
G1 X207.485 Y62.67 E7.72332
G1 X206.849 Y63.065 E7.742
G1 X206.175 Y63.389 E7.76065
G1 X205.47 Y63.639 E7.77931
G1 X204.742 Y63.813 E7.79798
G1 X204 Y63.908 E7.81664
G1 X203.483 Y63.927 E7.82955
G1 X195.483 Y63.927 E8.02911
G1 X194.736 Y63.887 E8.04777
G1 X193.998 Y63.768 E8.06642
G1 X193.276 Y63.57 E8.08509
G1 X192.58 Y63.297 E8.10374
G1 X191.917 Y62.95 E8.12241
G1 X191.294 Y62.535 E8.14108
G1 X190.72 Y62.056 E8.15973
G1 X190.199 Y61.519 E8.17839
G1 X189.74 Y60.929 E8.19704
G1 X189.345 Y60.293 E8.21572
G1 X189.021 Y59.619 E8.23437
G1 X188.771 Y58.914 E8.25303
G1 X188.597 Y58.186 E8.2717
G1 X188.502 Y57.444 E8.29036
G1 X188.483 Y56.927 E8.30327
G1 X188.483 Y51.927 E8.42799
G1 X188.523 Y51.18 E8.44665
G1 X188.642 Y50.442 E8.4653
G1 X188.702 Y50.224 E8.47094
G1 X188.597 Y49.786 E8.48218
G1 X188.502 Y49.044 E8.50084
G1 X188.483 Y48.527 E8.51374
G1 X188.483 Y43.527 E8.63847
G1 X188.523 Y42.78 E8.65713
G1 X188.642 Y42.042 E8.67578
G1 X188.702 Y41.824 E8.68142
G1 X188.597 Y41.386 E8.69265
G1 X188.502 Y40.644 E8.71131
G1 X188.483 Y40.127 E8.72422
G1 X188.483 Y35.127 E8.84894
G1 X188.523 Y34.38 E8.8676
G1 X188.642 Y33.642 E8.88625
G0 F3600 X189.042 Y33.685
G1 F1800 X189.24 Y32.986 E8.90437
G1 X189.513 Y32.313 E8.92249
G1 X189.771 Y31.82 E8.93637
G1 X190.046 Y31.345 E8.95006
G1 X190.492 Y30.673 E8.97018
G1 X190.823 Y30.235 E8.98388
G1 X191.368 Y29.601 E9.00473
G1 X191.753 Y29.207 E9.01847
G1 X192.323 Y28.689 E9.03769
G1 X192.752 Y28.342 E9.05145
G1 X193.452 Y27.847 E9.07284
G1 X193.928 Y27.555 E9.08677
G1 X194.633 Y27.179 E9.1067
G1 X195.127 Y26.953 E9.12025
G1 X195.876 Y26.664 E9.14027
G1 X196.399 Y26.498 E9.15396
G1 X197.2 Y26.298 E9.17456
G1 X197.748 Y26.197 E9.18846
G1 X198.542 Y26.1 E9.20841
G1 X199.083 Y26.067 E9.22193
G1 X199.882 Y26.067 E9.24186
G1 X200.43 Y26.1 E9.25556
G1 X201.261 Y26.203 E9.27644
G1 X201.805 Y26.306 E9.29026
G1 X202.569 Y26.499 E9.30991
G1 X203.087 Y26.663 E9.32347
G1 X203.848 Y26.957 E9.34382
G1 X204.347 Y27.186 E9.35751
G1 X205.07 Y27.574 E9.37798
G1 X205.538 Y27.864 E9.39172
G1 X206.192 Y28.326 E9.41169
G1 X206.622 Y28.671 E9.42544
G1 X207.225 Y29.219 E9.44577
G1 X207.607 Y29.612 E9.45944
G1 X208.131 Y30.221 E9.47948
G1 X208.465 Y30.661 E9.49326
G1 X208.92 Y31.345 E9.51375
G1 X209.195 Y31.82 E9.52744
G1 X209.524 Y32.468 E9.54557
G1 X209.779 Y33.148 E9.56369
G1 X209.959 Y33.852 E9.58181
G1 X210.007 Y34.191 E9.59035
G1 X211.919 Y34.191 E9.63805
G1 X212.644 Y34.231 E9.65616
G1 X213.361 Y34.35 E9.67429
G1 X214.06 Y34.548 E9.69242
G1 X214.733 Y34.821 E9.71053
G1 X215.372 Y35.166 E9.72865
G1 X215.969 Y35.58 E9.74677
G1 X216.517 Y36.056 E9.76488
G1 X217.01 Y36.59 E9.78301
G1 X217.44 Y37.175 E9.80112
G1 X217.804 Y37.804 E9.81925
G1 X218.097 Y38.469 E9.83737
G1 X218.315 Y39.162 E9.85549
G1 X218.455 Y39.874 E9.8736
G1 X218.519 Y40.791 E9.89653
G1 X218.519 Y48.791 E10.09609
G1 X218.479 Y49.516 E10.1142
G1 X218.36 Y50.233 E10.13233
G1 X218.162 Y50.932 E10.15045
G1 X217.889 Y51.605 E10.16857
G1 X217.544 Y52.244 E10.18668
G1 X217.13 Y52.841 E10.20481
G1 X216.654 Y53.389 E10.22291
G1 X216.12 Y53.882 E10.24104
G1 X215.535 Y54.312 E10.25915
G1 X214.906 Y54.676 E10.27728
G1 X214.241 Y54.969 E10.29541
G1 X213.548 Y55.187 E10.31353
G1 X212.836 Y55.327 E10.33163
G1 X211.919 Y55.391 E10.35456
G1 X210.083 Y55.391 E10.40036
G1 X210.083 Y56.927 E10.43868
G1 X210.043 Y57.652 E10.45679
G1 X209.924 Y58.369 E10.47492
G1 X209.726 Y59.068 E10.49304
G1 X209.453 Y59.741 E10.51116
G1 X209.108 Y60.38 E10.52928
G1 X208.694 Y60.977 E10.5474
G1 X208.218 Y61.525 E10.5655
G1 X207.684 Y62.018 E10.58363
G1 X207.099 Y62.448 E10.60175
G1 X206.47 Y62.812 E10.61987
G1 X205.805 Y63.105 E10.638
G1 X205.112 Y63.323 E10.65612
G1 X204.4 Y63.463 E10.67422
G1 X203.483 Y63.527 E10.69715
G1 X195.483 Y63.527 E10.89672
G1 X194.758 Y63.487 E10.91483
G1 X194.041 Y63.368 E10.93296
G1 X193.342 Y63.17 E10.95108
G1 X192.669 Y62.897 E10.9692
G1 X192.03 Y62.552 E10.98731
G1 X191.433 Y62.138 E11.00543
G1 X190.885 Y61.662 E11.02354
G1 X190.392 Y61.128 E11.04167
G1 X189.962 Y60.543 E11.05978
G1 X189.598 Y59.914 E11.07791
G1 X189.305 Y59.249 E11.09604
G1 X189.087 Y58.556 E11.11416
G1 X188.947 Y57.844 E11.13226
G1 X188.883 Y56.927 E11.15519
G1 X188.883 Y51.927 E11.27992
G1 X188.923 Y51.202 E11.29803
G1 X189.042 Y50.485 E11.31616
G1 X189.112 Y50.237 E11.32259
G1 X189.087 Y50.156 E11.3247
G1 X188.947 Y49.444 E11.3428
G1 X188.883 Y48.527 E11.36573
G1 X188.883 Y43.527 E11.49046
G1 X188.923 Y42.802 E11.50857
G1 X189.042 Y42.085 E11.5267
G1 X189.112 Y41.837 E11.53313
G1 X189.087 Y41.756 E11.53524
G1 X188.947 Y41.044 E11.55335
G1 X188.883 Y40.127 E11.57628
G1 X188.883 Y35.127 E11.701
G1 X188.923 Y34.402 E11.71911
G1 X189.042 Y33.685 E11.73724
G0 F3600 X189.442 Y33.73
G1 F1800 X189.64 Y33.055 E11.75479
G1 X189.912 Y32.406 E11.77235
G1 X190.117 Y32.021 E11.78323
G1 X190.392 Y31.546 E11.79692
G1 X190.812 Y30.914 E11.81585
G1 X191.143 Y30.476 E11.82954
G1 X191.655 Y29.881 E11.84912
G1 X192.04 Y29.487 E11.86286
G1 X192.575 Y29 E11.88091
G1 X193.004 Y28.653 E11.89468
G1 X193.661 Y28.188 E11.91475
G1 X194.137 Y27.896 E11.92868
G1 X194.8 Y27.543 E11.94742
G1 X195.294 Y27.317 E11.96097
G1 X195.997 Y27.046 E11.97977
G1 X196.52 Y26.88 E11.99345
G1 X197.272 Y26.692 E12.01279
G1 X197.82 Y26.591 E12.02669
G1 X198.567 Y26.5 E12.04546
G1 X199.108 Y26.467 E12.05898
G1 X199.858 Y26.466 E12.07769
G1 X200.406 Y26.499 E12.09139
G1 X201.186 Y26.596 E12.11099
G1 X201.73 Y26.699 E12.1248
G1 X202.448 Y26.88 E12.14327
G1 X202.966 Y27.044 E12.15683
G1 X203.681 Y27.32 E12.17595
G1 X204.18 Y27.549 E12.18964
G1 X204.86 Y27.914 E12.20889
G1 X205.328 Y28.204 E12.22263
G1 X205.942 Y28.638 E12.24138
G1 X206.372 Y28.983 E12.25514
G1 X206.938 Y29.498 E12.27423
G1 X207.32 Y29.891 E12.2879
G1 X207.812 Y30.463 E12.30672
