;FLAVOR:Marlin
;TIME:2094
;Filament used: 0.87458m, 0m
;Layer height: 0.1
;MINX:101.941
;MINY:9.741
;MINZ:0.15
;MAXX:141.512
;MAXY:57.333
;MAXZ:9.95
;Generated with Cura_SteamEngine 4.8.0
T0
M82 ;absolute extrusion mode
;GeeeTech A20M start script
G28 ;home
G90 ;absolute positioning
G1 X0 Y0 Z15 E0 F300 ;go to wait position
M140 S20.0 ;set bed temp
M109 S200.0 ;set extruder temp and wait
G1 Z0.8 F200 ;set extruder height
G1 X220 Y0 E80 F1000 ;purge line
;end of start script
G92 E0
G92 E0
G1 F2100 E-0.8
;LAYER_COUNT:99
;LAYER:0
M107
G0 F3600 X102.615 Y24.387 Z0.15
;TYPE:SKIRT
G1 F2100 E0
G1 F1800 X102.878 Y23.496 E0.02317
G1 X103.365 Y22.148 E0.05893
G1 X103.731 Y21.297 E0.08204
G1 X104.374 Y20.017 E0.11777
G1 X104.837 Y19.217 E0.14082
G1 X105.623 Y18.028 E0.17638
G1 X106.183 Y17.282 E0.19965
G1 X107.108 Y16.192 E0.23531
G1 X107.744 Y15.526 E0.25828
G1 X108.781 Y14.562 E0.2936
G1 X109.492 Y13.976 E0.31658
G1 X110.656 Y13.126 E0.35254
G1 X111.446 Y12.619 E0.37595
G1 X112.682 Y11.927 E0.41129
G1 X113.516 Y11.523 E0.43441
G1 X114.834 Y10.979 E0.46997
G1 X115.71 Y10.677 E0.49309
G1 X117.087 Y10.292 E0.52875
G1 X117.993 Y10.096 E0.55188
G1 X119.407 Y9.877 E0.58757
G1 X120.333 Y9.79 E0.61077
G1 X121.759 Y9.741 E0.64636
G1 X122.692 Y9.764 E0.66964
G1 X124.106 Y9.885 E0.70505
G1 X125.011 Y10.017 E0.72786
G1 X126.413 Y10.305 E0.76356
G1 X127.316 Y10.547 E0.78688
G1 X128.668 Y10.999 E0.82244
G1 X129.512 Y11.337 E0.84512
G1 X130.806 Y11.945 E0.88079
G1 X131.644 Y12.404 E0.90462
G1 X132.842 Y13.158 E0.93993
G1 X133.583 Y13.687 E0.96264
G1 X134.703 Y14.59 E0.99853
G1 X135.393 Y15.218 E1.02181
G1 X136.384 Y16.235 E1.05723
G1 X136.987 Y16.931 E1.0802
G1 X137.86 Y18.069 E1.11598
G1 X138.385 Y18.848 E1.13941
G1 X139.108 Y20.071 E1.17485
G1 X139.528 Y20.885 E1.1977
G1 X140.106 Y22.192 E1.23335
G1 X140.431 Y23.067 E1.25663
G1 X140.847 Y24.428 E1.29213
G1 X141.065 Y25.326 E1.31519
G1 X141.318 Y26.731 E1.3508
G1 X141.427 Y27.654 E1.37398
G1 X141.511 Y29.079 E1.40959
G1 X141.512 Y29.987 E1.43224
G1 X141.433 Y31.356 E1.46645
G1 X141.333 Y32.228 E1.48834
G1 X141.102 Y33.572 E1.52236
G1 X140.898 Y34.452 E1.54489
G1 X140.511 Y35.768 E1.57911
G1 X140.213 Y36.603 E1.60123
G1 X139.681 Y37.862 E1.63532
G1 X139.288 Y38.661 E1.65753
G1 X138.616 Y39.851 E1.69162
G1 X138.136 Y40.599 E1.71379
G1 X137.33 Y41.709 E1.74801
G1 X136.763 Y42.402 E1.77035
G1 X135.839 Y43.408 E1.80442
G1 X135.209 Y44.021 E1.82635
G1 X134.526 Y44.614 E1.84891
G1 X134.526 Y49.416 E1.9687
G1 X134.486 Y50.205 E1.98841
G1 X134.367 Y50.985 E2.00809
G1 X134.169 Y51.75 E2.0278
G1 X133.895 Y52.49 E2.04748
G1 X133.547 Y53.199 E2.06719
G1 X133.129 Y53.87 E2.08691
G1 X132.646 Y54.494 E2.10659
G1 X132.241 Y54.931 E2.12145
G1 X132.124 Y55.048 E2.12558
G1 X131.538 Y55.578 E2.14529
G1 X130.902 Y56.045 E2.16497
G1 X130.222 Y56.446 E2.18467
G1 X129.504 Y56.776 E2.20438
G1 X128.757 Y57.031 E2.22407
G1 X127.988 Y57.21 E2.24376
G1 X127.204 Y57.31 E2.26348
G1 X126.609 Y57.333 E2.27833
G1 X122.843 Y57.333 E2.37227
G1 X122.054 Y57.293 E2.39198
G1 X121.728 Y57.243 E2.40021
G1 X121.204 Y57.31 E2.41339
G1 X120.609 Y57.333 E2.42824
G1 X116.843 Y57.333 E2.52218
G1 X116.054 Y57.293 E2.54189
G1 X115.274 Y57.174 E2.56157
G1 X114.509 Y56.976 E2.58128
G1 X113.769 Y56.702 E2.60097
G1 X113.06 Y56.354 E2.62067
G1 X112.389 Y55.936 E2.64039
G1 X111.765 Y55.453 E2.66007
G1 X111.328 Y55.048 E2.67494
G1 X111.211 Y54.931 E2.67906
G1 X110.681 Y54.345 E2.69877
G1 X110.214 Y53.709 E2.71846
G1 X109.813 Y53.029 E2.73815
G1 X109.483 Y52.311 E2.75786
G1 X109.228 Y51.564 E2.77755
G1 X109.049 Y50.795 E2.79725
G1 X108.949 Y50.011 E2.81696
G1 X108.926 Y49.416 E2.83181
G1 X108.926 Y44.618 E2.9515
G1 X108.043 Y43.832 E2.98099
G1 X107.385 Y43.172 E3.00424
G1 X106.432 Y42.094 E3.04013
G1 X105.861 Y41.365 E3.06323
G1 X105.058 Y40.204 E3.09844
G1 X104.574 Y39.407 E3.1217
G1 X103.905 Y38.139 E3.15747
G1 X103.526 Y37.303 E3.18036
G1 X103.012 Y35.969 E3.21602
G1 X102.731 Y35.09 E3.23904
G1 X102.379 Y33.708 E3.27462
G1 X102.202 Y32.782 E3.29814
G1 X102.02 Y31.373 E3.33358
G1 X101.956 Y30.456 E3.35651
G1 X101.941 Y29.028 E3.39213
G1 X101.986 Y28.106 E3.41516
G1 X102.14 Y26.684 E3.45084
G1 X102.296 Y25.765 E3.47409
G1 X102.615 Y24.387 E3.50937
G0 F3600 X103.005 Y24.477
G1 F1800 X103.254 Y23.632 E3.53135
G1 X103.741 Y22.284 E3.5671
G1 X104.088 Y21.476 E3.58904
G1 X104.731 Y20.196 E3.62477
G1 X105.171 Y19.437 E3.64665
G1 X105.957 Y18.248 E3.68221
G1 X106.488 Y17.541 E3.70426
G1 X107.413 Y16.451 E3.73993
G1 X108.017 Y15.819 E3.76173
G1 X109.054 Y14.855 E3.79705
G1 X109.728 Y14.299 E3.81885
G1 X110.892 Y13.449 E3.8548
G1 X111.641 Y12.968 E3.87701
G1 X112.877 Y12.276 E3.91234
G1 X113.669 Y11.893 E3.93429
G1 X114.987 Y11.349 E3.96985
G1 X115.817 Y11.062 E3.99176
G1 X117.194 Y10.677 E4.02743
G1 X118.054 Y10.491 E4.04938
G1 X119.468 Y10.272 E4.08507
G1 X120.347 Y10.189 E4.10709
G1 X121.773 Y10.14 E4.14269
G1 X122.658 Y10.163 E4.16477
G1 X124.072 Y10.284 E4.20017
G1 X124.93 Y10.408 E4.2218
G1 X126.332 Y10.696 E4.2575
G1 X127.189 Y10.927 E4.27964
G1 X128.541 Y11.379 E4.3152
G1 X129.342 Y11.699 E4.33672
G1 X130.636 Y12.307 E4.37238
G1 X131.431 Y12.742 E4.39499
G1 X132.629 Y13.496 E4.4303
G1 X133.332 Y13.998 E4.45185
G1 X134.452 Y14.901 E4.48774
G1 X135.107 Y15.498 E4.50984
G1 X136.098 Y16.515 E4.54527
G1 X136.669 Y17.175 E4.56704
G1 X137.542 Y18.313 E4.60281
G1 X138.041 Y19.051 E4.62504
G1 X138.764 Y20.274 E4.66048
G1 X139.162 Y21.047 E4.68217
G1 X139.74 Y22.354 E4.71781
G1 X140.049 Y23.184 E4.73991
G1 X140.465 Y24.545 E4.77541
G1 X140.671 Y25.397 E4.79727
G1 X140.924 Y26.802 E4.83288
G1 X141.028 Y27.678 E4.85489
G1 X141.112 Y29.103 E4.8905
G1 X141.113 Y29.964 E4.91198
G1 X141.034 Y31.333 E4.94618
G1 X140.939 Y32.16 E4.96695
G1 X140.708 Y33.504 E5.00097
G1 X140.514 Y34.339 E5.02235
G1 X140.127 Y35.655 E5.05657
G1 X139.844 Y36.447 E5.07755
G1 X139.312 Y37.706 E5.11164
G1 X138.94 Y38.465 E5.13273
G1 X138.268 Y39.655 E5.16682
G1 X137.812 Y40.364 E5.18785
G1 X137.006 Y41.474 E5.22207
G1 X136.468 Y42.132 E5.24327
G1 X135.544 Y43.138 E5.27734
G1 X134.947 Y43.719 E5.29812
G1 X134.126 Y44.432 E5.32525
G1 X134.126 Y49.416 E5.44957
G1 X134.086 Y50.184 E5.46876
G1 X133.967 Y50.944 E5.48795
G1 X133.769 Y51.687 E5.50713
G1 X133.495 Y52.406 E5.52632
G1 X133.148 Y53.092 E5.5455
G1 X132.732 Y53.739 E5.56469
G1 X132.251 Y54.339 E5.58387
G1 X131.842 Y54.766 E5.59862
G1 X131.27 Y55.28 E5.6178
G1 X130.648 Y55.733 E5.637
G1 X129.983 Y56.119 E5.65618
G1 X129.281 Y56.434 E5.67537
G1 X128.55 Y56.674 E5.69456
G1 X127.799 Y56.837 E5.71373
G1 X127.034 Y56.921 E5.73293
G1 X126.609 Y56.933 E5.74354
G1 X122.843 Y56.933 E5.83748
G1 X122.075 Y56.893 E5.85666
G1 X121.751 Y56.842 E5.86484
G1 X121.034 Y56.921 E5.88284
G1 X120.609 Y56.933 E5.89344
G1 X116.843 Y56.933 E5.98739
G1 X116.075 Y56.893 E6.00657
G1 X115.315 Y56.774 E6.02576
G1 X114.572 Y56.576 E6.04494
G1 X113.853 Y56.302 E6.06414
G1 X113.167 Y55.955 E6.08331
G1 X112.52 Y55.539 E6.1025
G1 X111.92 Y55.058 E6.12168
G1 X111.493 Y54.649 E6.13643
G1 X110.979 Y54.077 E6.15562
G1 X110.526 Y53.455 E6.17481
G1 X110.14 Y52.79 E6.19399
G1 X109.825 Y52.088 E6.21318
G1 X109.585 Y51.357 E6.23238
G1 X109.422 Y50.606 E6.25155
G1 X109.338 Y49.841 E6.27074
G1 X109.326 Y49.416 E6.28135
G1 X109.326 Y44.439 E6.4055
G1 X108.309 Y43.534 E6.43946
G1 X107.685 Y42.907 E6.46153
G1 X106.732 Y41.829 E6.49742
G1 X106.19 Y41.137 E6.51935
G1 X105.387 Y39.976 E6.55456
G1 X104.928 Y39.22 E6.57662
G1 X104.259 Y37.952 E6.61239
G1 X103.899 Y37.16 E6.63409
G1 X103.385 Y35.826 E6.66975
G1 X103.119 Y34.991 E6.69161
G1 X102.767 Y33.609 E6.72718
G1 X102.599 Y32.731 E6.74948
G1 X102.417 Y31.322 E6.78492
G1 X102.356 Y30.452 E6.80668
G1 X102.341 Y29.024 E6.8423
G1 X102.384 Y28.149 E6.86415
G1 X102.538 Y26.727 E6.89983
G1 X102.686 Y25.855 E6.9219
G1 X103.005 Y24.477 E6.95718
G0 F3600 X103.394 Y24.567
G1 F1800 X103.63 Y23.768 E6.97796
G1 X104.117 Y22.42 E7.01372
G1 X104.446 Y21.656 E7.03447
G1 X105.089 Y20.376 E7.0702
G1 X105.505 Y19.658 E7.0909
G1 X106.291 Y18.469 E7.12645
G1 X106.793 Y17.8 E7.14732
G1 X107.718 Y16.71 E7.18298
G1 X108.289 Y16.112 E7.2036
G1 X109.326 Y15.148 E7.23892
G1 X109.964 Y14.622 E7.25955
G1 X111.128 Y13.772 E7.2955
G1 X111.836 Y13.317 E7.3165
G1 X113.072 Y12.625 E7.35183
G1 X113.821 Y12.262 E7.37259
G1 X115.139 Y11.718 E7.40816
G1 X115.925 Y11.448 E7.42889
G1 X117.302 Y11.063 E7.46456
G1 X118.116 Y10.886 E7.48534
G1 X119.53 Y10.667 E7.52103
G1 X120.361 Y10.589 E7.54185
G1 X121.787 Y10.54 E7.57745
G1 X122.624 Y10.561 E7.59833
G1 X124.038 Y10.682 E7.63373
G1 X124.85 Y10.8 E7.6542
G1 X126.252 Y11.088 E7.6899
G1 X127.062 Y11.306 E7.71083
G1 X128.414 Y11.758 E7.74639
G1 X129.172 Y12.061 E7.76675
G1 X130.466 Y12.669 E7.80242
G1 X131.218 Y13.081 E7.82381
G1 X132.416 Y13.835 E7.85912
G1 X133.081 Y14.31 E7.8795
G1 X134.201 Y15.213 E7.91539
G1 X134.82 Y15.777 E7.93628
G1 X135.811 Y16.794 E7.9717
G1 X136.352 Y17.418 E7.9923
G1 X137.225 Y18.556 E8.02808
G1 X137.697 Y19.255 E8.04912
G1 X138.42 Y20.478 E8.08456
G1 X138.796 Y21.209 E8.10507
G1 X139.374 Y22.516 E8.14072
G1 X139.666 Y23.301 E8.16161
G1 X140.082 Y24.662 E8.19711
G1 X140.277 Y25.467 E8.21777
G1 X140.53 Y26.872 E8.25338
G1 X140.629 Y27.701 E8.27421
G1 X140.713 Y29.126 E8.30982
G1 X140.713 Y29.941 E8.33015
G1 X140.634 Y31.31 E8.36435
G1 X140.545 Y32.093 E8.38401
G1 X140.314 Y33.437 E8.41803
G1 X140.131 Y34.226 E8.43823
G1 X139.744 Y35.542 E8.47245
G1 X139.476 Y36.292 E8.49232
G1 X138.944 Y37.551 E8.52641
G1 X138.591 Y38.268 E8.54635
G1 X137.919 Y39.458 E8.58044
G1 X137.488 Y40.129 E8.60033
G1 X136.682 Y41.239 E8.63455
G1 X136.173 Y41.861 E8.6546
G1 X135.249 Y42.867 E8.68868
G1 X134.684 Y43.417 E8.70835
G1 X133.726 Y44.249 E8.74
G1 X133.726 Y49.416 E8.86889
G1 X133.686 Y50.163 E8.88755
G1 X133.567 Y50.901 E8.9062
G1 X133.369 Y51.623 E8.92487
G1 X133.096 Y52.319 E8.94352
G1 X132.749 Y52.982 E8.96219
G1 X132.334 Y53.605 E8.98086
G1 X131.676 Y54.366 E9.00596
G1 X131.559 Y54.483 E9.01008
G1 X131.002 Y54.983 E9.02876
G1 X130.396 Y55.42 E9.04739
G1 X129.746 Y55.791 E9.06606
G1 X129.06 Y56.09 E9.08473
G1 X128.346 Y56.314 E9.1034
G1 X127.613 Y56.461 E9.12204
G1 X126.609 Y56.533 E9.14715
G1 X122.843 Y56.533 E9.2411
G1 X122.096 Y56.493 E9.25976
G1 X121.74 Y56.436 E9.26875
G1 X121.613 Y56.461 E9.27198
G1 X120.609 Y56.533 E9.29709
G1 X116.843 Y56.533 E9.39103
G1 X116.096 Y56.493 E9.40969
G1 X115.358 Y56.374 E9.42834
G1 X114.636 Y56.176 E9.44702
G1 X113.94 Y55.903 E9.46567
G1 X113.277 Y55.556 E9.48433
G1 X112.654 Y55.141 E9.50301
G1 X111.893 Y54.483 E9.5281
G1 X111.776 Y54.366 E9.53223
G1 X111.276 Y53.809 E9.5509
G1 X110.839 Y53.203 E9.56954
G1 X110.468 Y52.553 E9.58821
G1 X110.169 Y51.867 E9.60687
G1 X109.945 Y51.153 E9.62554
G1 X109.798 Y50.42 E9.64419
G1 X109.726 Y49.416 E9.6693
G1 X109.726 Y44.251 E9.79814
G1 X109.648 Y44.19 E9.80061
G1 X108.575 Y43.235 E9.83644
G1 X107.985 Y42.642 E9.85731
G1 X107.032 Y41.564 E9.8932
G1 X106.519 Y40.91 E9.91394
G1 X105.716 Y39.749 E9.94915
G1 X105.282 Y39.033 E9.97003
G1 X104.613 Y37.765 E10.0058
G1 X104.272 Y37.016 E10.02633
G1 X103.758 Y35.682 E10.06199
G1 X103.507 Y34.893 E10.08264
G1 X103.155 Y33.511 E10.11822
G1 X102.996 Y32.68 E10.13932
G1 X102.814 Y31.271 E10.17476
G1 X102.756 Y30.448 E10.19534
G1 X102.741 Y29.02 E10.23097
G1 X102.782 Y28.192 E10.25165
G1 X102.936 Y26.77 E10.28733
G1 X103.075 Y25.945 E10.30819
G1 X103.394 Y24.567 E10.34348
G0 F3600 X103.784 Y24.657
G1 F1800 X104.007 Y23.903 E10.36309
G1 X104.494 Y22.555 E10.39885
G1 X104.803 Y21.835 E10.41839
G1 X105.446 Y20.555 E10.45412
G1 X105.838 Y19.878 E10.47364
G1 X106.624 Y18.689 E10.50919
G1 X107.098 Y18.059 E10.52886
G1 X108.023 Y16.969 E10.56452
G1 X108.561 Y16.405 E10.58396
G1 X109.598 Y15.441 E10.61928
G1 X110.2 Y14.945 E10.63874
G1 X111.364 Y14.095 E10.67469
G1 X112.032 Y13.666 E10.6945
G1 X113.268 Y12.974 E10.72983
G1 X113.974 Y12.632 E10.7494
G1 X115.292 Y12.088 E10.78497
G1 X116.033 Y11.833 E10.80452
G1 X117.41 Y11.448 E10.84018
G1 X118.177 Y11.282 E10.85976
G1 X119.591 Y11.063 E10.89545
G1 X120.374 Y10.989 E10.91507
G1 X121.8 Y10.94 E10.95066
G1 X122.59 Y10.96 E10.97038
G1 X124.004 Y11.081 E11.00578
G1 X124.769 Y11.192 E11.02506
G1 X126.171 Y11.48 E11.06076
G1 X126.936 Y11.686 E11.08053
G1 X128.288 Y12.138 E11.11609
G1 X129.002 Y12.424 E11.13527
G1 X130.296 Y13.032 E11.17094
G1 X131.005 Y13.419 E11.19109
G1 X132.203 Y14.173 E11.2264
G1 X132.83 Y14.621 E11.24562
G1 X133.95 Y15.524 E11.28151
G1 X134.534 Y16.056 E11.30122
G1 X135.525 Y17.073 E11.33664
G1 X136.035 Y17.662 E11.35607
G1 X136.908 Y18.8 E11.39185
G1 X137.352 Y19.458 E11.41165
G1 X138.075 Y20.681 E11.44709
G1 X138.43 Y21.371 E11.46645
G1 X139.008 Y22.678 E11.5021
G1 X139.284 Y23.418 E11.5218
G1 X139.7 Y24.779 E11.5573
G1 X139.884 Y25.538 E11.57678
G1 X140.137 Y26.943 E11.61239
G1 X140.23 Y27.725 E11.63204
G1 X140.314 Y29.15 E11.66765
G1 X140.314 Y29.918 E11.6868
G1 X140.235 Y31.287 E11.72101
G1 X140.151 Y32.025 E11.73954
G1 X139.92 Y33.369 E11.77356
G1 X139.747 Y34.113 E11.79261
G1 X139.36 Y35.429 E11.82683
G1 X139.108 Y36.136 E11.84555
G1 X138.576 Y37.395 E11.87965
G1 X138.243 Y38.071 E11.89845
G1 X137.571 Y39.261 E11.93254
G1 X137.165 Y39.894 E11.95129
G1 X136.359 Y41.004 E11.98551
G1 X135.879 Y41.591 E12.00443
G1 X134.955 Y42.597 E12.0385
G1 X134.422 Y43.115 E12.05704
G1 X133.387 Y44.014 E12.09124
G1 X133.326 Y44.061 E12.09316
G1 X133.326 Y49.416 E12.22674
G1 X133.286 Y50.141 E12.24486
G1 X133.167 Y50.858 E12.26299
G1 X132.969 Y51.557 E12.28111
G1 X132.696 Y52.23 E12.29922
G1 X132.351 Y52.869 E12.31734
G1 X131.937 Y53.466 E12.33546
G1 X131.393 Y54.083 E12.35598
G1 X131.276 Y54.2 E12.36011
G1 X130.735 Y54.684 E12.37822
G1 X130.144 Y55.107 E12.39635
G1 X129.51 Y55.461 E12.41446
G1 X128.841 Y55.744 E12.43258
G1 X128.145 Y55.952 E12.4507
G1 X127.43 Y56.082 E12.46883
G1 X126.609 Y56.133 E12.48935
G1 X122.843 Y56.133 E12.58329
G1 X122.118 Y56.093 E12.6014
G1 X121.727 Y56.028 E12.61129
G1 X121.43 Y56.082 E12.61882
G1 X120.609 Y56.133 E12.63934
G1 X116.843 Y56.133 E12.73328
G1 X116.118 Y56.093 E12.7514
G1 X115.401 Y55.974 E12.76953
G1 X114.702 Y55.776 E12.78765
G1 X114.029 Y55.503 E12.80577
G1 X113.39 Y55.158 E12.82388
G1 X112.793 Y54.744 E12.842
G1 X112.176 Y54.2 E12.86252
G1 X112.059 Y54.083 E12.86665
G1 X111.575 Y53.542 E12.88476
G1 X111.152 Y52.951 E12.90289
G1 X110.798 Y52.317 E12.921
G1 X110.515 Y51.648 E12.93912
G1 X110.307 Y50.952 E12.95724
G1 X110.177 Y50.237 E12.97537
G1 X110.126 Y49.416 E12.99589
G1 X110.126 Y44.058 E13.12955
G1 X109.914 Y43.891 E13.13628
G1 X108.841 Y42.936 E13.17211
G1 X108.284 Y42.377 E13.19179
G1 X107.331 Y41.299 E13.22769
G1 X106.848 Y40.682 E13.24723
G1 X106.045 Y39.521 E13.28245
G1 X105.636 Y38.847 E13.30211
G1 X104.967 Y37.579 E13.33788
G1 X104.645 Y36.872 E13.35725
G1 X104.131 Y35.538 E13.39292
G1 X103.894 Y34.794 E13.41239
G1 X103.542 Y33.412 E13.44797
G1 X103.392 Y32.628 E13.46788
G1 X103.21 Y31.219 E13.50332
G1 X103.156 Y30.443 E13.52272
G1 X103.141 Y29.015 E13.55835
G1 X103.179 Y28.235 E13.57783
G1 X103.333 Y26.813 E13.61351
G1 X103.465 Y26.035 E13.63319
G1 X103.784 Y24.657 E13.66848
G0 F3600 X104.174 Y24.748
G1 F1800 X104.383 Y24.039 E13.68691
G1 X104.87 Y22.691 E13.72267
G1 X105.161 Y22.015 E13.74103
G1 X105.804 Y20.735 E13.77676
G1 X106.172 Y20.099 E13.79509
G1 X106.958 Y18.91 E13.83064
G1 X107.403 Y18.317 E13.84914
G1 X108.328 Y17.227 E13.8848
G1 X108.834 Y16.698 E13.90306
G1 X109.871 Y15.734 E13.93838
G1 X110.436 Y15.268 E13.95665
G1 X111.6 Y14.418 E13.9926
G1 X112.227 Y14.015 E14.01119
G1 X113.463 Y13.323 E14.04653
G1 X114.127 Y13.002 E14.06493
G1 X115.445 Y12.458 E14.10049
G1 X116.141 Y12.218 E14.11886
G1 X117.518 Y11.833 E14.15453
G1 X118.238 Y11.677 E14.1729
G1 X119.652 Y11.458 E14.2086
G1 X120.388 Y11.389 E14.22704
G1 X121.814 Y11.34 E14.26263
G1 X122.556 Y11.359 E14.28114
G1 X123.97 Y11.48 E14.31655
G1 X124.689 Y11.584 E14.33467
G1 X126.091 Y11.872 E14.37037
G1 X126.809 Y12.065 E14.38892
G1 X128.161 Y12.517 E14.42448
G1 X128.832 Y12.786 E14.44251
G1 X130.126 Y13.394 E14.47818
G1 X130.792 Y13.758 E14.49711
G1 X131.99 Y14.512 E14.53242
G1 X132.578 Y14.932 E14.55044
