;FLAVOR:Marlin
;TIME:1200
;Filament used: 0.0581406m, 0.426421m
;Layer height: 0.1
;MINX:23.165
;MINY:25.35
;MINZ:0.15
;MAXX:57.235
;MAXY:67.95
;MAXZ:5.05
;Generated with Cura_SteamEngine 4.8.0
T0
M82 ;absolute extrusion mode
;GeeeTech A20M start script
G28 ;home
G90 ;absolute positioning
G1 X0 Y0 Z15 E0 F300 ;go to wait position
M140 S20.0 ;set bed temp
M109 S200.0 ;set extruder temp and wait
G1 Z0.8 F200 ;set extruder height
G1 X220 Y0 E80 F1000 ;purge line
;end of start script
G92 E0
G92 E0
G1 F2100 E-0.8
;LAYER_COUNT:50
;LAYER:0
M107
M104 T1 S175
G0 F3600 X26.388 Y28.299 Z0.15
;TYPE:SKIRT
G1 F2100 E0
G1 F1800 X26.987 Y27.784 E0.01971
G1 X27.635 Y27.333 E0.0394
G1 X28.326 Y26.949 E0.05912
G1 X29.051 Y26.637 E0.07881
G1 X29.804 Y26.4 E0.0985
G1 X30.578 Y26.241 E0.11821
G1 X31.363 Y26.16 E0.1379
G1 X31.765 Y26.15 E0.14793
G1 X48.635 Y26.15 E0.56875
G1 X49.424 Y26.19 E0.58846
G1 X50.204 Y26.309 E0.60814
G1 X50.969 Y26.507 E0.62785
G1 X51.709 Y26.781 E0.64754
G1 X52.418 Y27.129 E0.66724
G1 X53.089 Y27.547 E0.68696
G1 X53.713 Y28.03 E0.70664
G1 X54.286 Y28.573 E0.72633
G1 X54.801 Y29.172 E0.74604
G1 X55.252 Y29.82 E0.76573
G1 X55.636 Y30.511 E0.78545
G1 X55.948 Y31.236 E0.80514
G1 X56.185 Y31.989 E0.82484
G1 X56.344 Y32.763 E0.84455
G1 X56.425 Y33.548 E0.86423
G1 X56.435 Y33.95 E0.87426
G1 X56.435 Y59.35 E1.50787
G1 X56.395 Y60.139 E1.52758
G1 X56.276 Y60.919 E1.54726
G1 X56.078 Y61.684 E1.56697
G1 X55.804 Y62.424 E1.58665
G1 X55.456 Y63.133 E1.60636
G1 X55.038 Y63.804 E1.62608
G1 X54.555 Y64.428 E1.64576
G1 X54.012 Y65.001 E1.66545
G1 X53.413 Y65.516 E1.68516
G1 X52.765 Y65.967 E1.70485
G1 X52.074 Y66.351 E1.72457
G1 X51.349 Y66.663 E1.74426
G1 X50.596 Y66.9 E1.76395
G1 X49.822 Y67.059 E1.78366
G1 X49.037 Y67.14 E1.80335
G1 X48.635 Y67.15 E1.81338
G1 X31.765 Y67.15 E2.2342
G1 X30.976 Y67.11 E2.25391
G1 X30.196 Y66.991 E2.27359
G1 X29.431 Y66.793 E2.2933
G1 X28.691 Y66.519 E2.31299
G1 X27.982 Y66.171 E2.33269
G1 X27.311 Y65.753 E2.35241
G1 X26.687 Y65.27 E2.37209
G1 X26.114 Y64.727 E2.39179
G1 X25.599 Y64.128 E2.41149
G1 X25.148 Y63.48 E2.43119
G1 X24.764 Y62.789 E2.45091
G1 X24.452 Y62.064 E2.47059
G1 X24.215 Y61.311 E2.49029
G1 X24.056 Y60.537 E2.51
G1 X23.975 Y59.752 E2.52968
G1 X23.965 Y59.35 E2.53971
G1 X23.965 Y54.21 E2.66793
G1 X24.005 Y53.421 E2.68764
G1 X24.124 Y52.641 E2.70732
G1 X24.322 Y51.876 E2.72703
G1 X24.596 Y51.136 E2.74672
G1 X24.944 Y50.427 E2.76642
G1 X25.362 Y49.756 E2.78614
G1 X25.845 Y49.132 E2.80582
G1 X26.388 Y48.559 E2.82552
G1 X26.987 Y48.044 E2.84522
G1 X27.635 Y47.593 E2.86491
G1 X28.326 Y47.209 E2.88463
G1 X29.066 Y46.892 E2.90472
G1 X29.065 Y45.518 E2.93899
G1 X28.691 Y45.379 E2.94894
G1 X27.982 Y45.031 E2.96865
G1 X27.311 Y44.613 E2.98837
G1 X26.687 Y44.13 E3.00805
G1 X26.114 Y43.587 E3.02774
G1 X25.599 Y42.988 E3.04745
G1 X25.148 Y42.34 E3.06714
G1 X24.764 Y41.649 E3.08686
G1 X24.452 Y40.924 E3.10655
G1 X24.215 Y40.171 E3.12624
G1 X24.056 Y39.397 E3.14595
G1 X23.975 Y38.612 E3.16564
G1 X23.965 Y38.21 E3.17567
G1 X23.965 Y33.95 E3.28194
G1 X24.005 Y33.161 E3.30164
G1 X24.124 Y32.381 E3.32133
G1 X24.322 Y31.616 E3.34104
G1 X24.596 Y30.876 E3.36072
G1 X24.944 Y30.167 E3.38042
G1 X25.362 Y29.496 E3.40014
G1 X25.845 Y28.872 E3.41983
G1 X26.388 Y28.299 E3.43952
G0 F3600 X26.781 Y28.48
G1 F1800 X27.376 Y27.992 E3.45871
G1 X28.018 Y27.569 E3.47789
G1 X28.701 Y27.214 E3.49709
G1 X29.416 Y26.933 E3.51626
G1 X30.158 Y26.727 E3.53547
G1 X30.916 Y26.599 E3.55464
G1 X31.765 Y26.55 E3.57586
G1 X48.635 Y26.55 E3.99668
G1 X49.403 Y26.59 E4.01587
G1 X50.163 Y26.709 E4.03505
G1 X50.906 Y26.907 E4.05424
G1 X51.625 Y27.181 E4.07343
G1 X52.311 Y27.528 E4.09261
G1 X52.958 Y27.944 E4.11179
G1 X53.558 Y28.425 E4.13098
G1 X54.105 Y28.966 E4.15017
G1 X54.593 Y29.561 E4.16936
G1 X55.016 Y30.203 E4.18854
G1 X55.371 Y30.886 E4.20774
G1 X55.652 Y31.601 E4.22691
G1 X55.858 Y32.343 E4.24612
G1 X55.986 Y33.101 E4.26529
G1 X56.035 Y33.95 E4.28651
G1 X56.035 Y59.35 E4.92011
G1 X55.995 Y60.118 E4.9393
G1 X55.876 Y60.878 E4.95849
G1 X55.678 Y61.621 E4.97767
G1 X55.404 Y62.34 E4.99686
G1 X55.057 Y63.026 E5.01604
G1 X54.641 Y63.673 E5.03522
G1 X54.16 Y64.273 E5.05441
G1 X53.619 Y64.82 E5.0736
G1 X53.024 Y65.308 E5.09279
G1 X52.382 Y65.731 E5.11197
G1 X51.699 Y66.086 E5.13117
G1 X50.984 Y66.367 E5.15034
G1 X50.242 Y66.573 E5.16955
G1 X49.484 Y66.701 E5.18872
G1 X48.635 Y66.75 E5.20994
G1 X31.765 Y66.75 E5.63076
G1 X30.997 Y66.71 E5.64995
G1 X30.237 Y66.591 E5.66913
G1 X29.494 Y66.393 E5.68832
G1 X28.775 Y66.119 E5.70751
G1 X28.089 Y65.772 E5.72669
G1 X27.442 Y65.356 E5.74587
G1 X26.842 Y64.875 E5.76506
G1 X26.295 Y64.334 E5.78425
G1 X25.807 Y63.739 E5.80344
G1 X25.384 Y63.097 E5.82262
G1 X25.029 Y62.414 E5.84182
G1 X24.748 Y61.699 E5.86099
G1 X24.542 Y60.957 E5.8802
G1 X24.414 Y60.199 E5.89937
G1 X24.365 Y59.35 E5.92059
G1 X24.365 Y54.21 E6.0488
G1 X24.405 Y53.442 E6.06799
G1 X24.524 Y52.682 E6.08718
G1 X24.722 Y51.939 E6.10636
G1 X24.996 Y51.22 E6.12555
G1 X25.343 Y50.534 E6.14473
G1 X25.759 Y49.887 E6.16392
G1 X26.24 Y49.287 E6.1831
G1 X26.781 Y48.74 E6.20229
G1 X27.376 Y48.252 E6.22149
G1 X28.018 Y47.829 E6.24067
G1 X28.701 Y47.474 E6.25987
G1 X29.416 Y47.193 E6.27903
G1 X29.466 Y47.179 E6.28033
G1 X29.465 Y45.242 E6.32864
G1 X28.775 Y44.979 E6.34706
G1 X28.089 Y44.632 E6.36624
G1 X27.442 Y44.216 E6.38543
G1 X26.842 Y43.735 E6.40461
G1 X26.295 Y43.194 E6.4238
G1 X25.807 Y42.599 E6.443
G1 X25.384 Y41.957 E6.46218
G1 X25.029 Y41.274 E6.48138
G1 X24.748 Y40.559 E6.50054
G1 X24.542 Y39.817 E6.51975
G1 X24.414 Y39.059 E6.53893
G1 X24.365 Y38.21 E6.56014
G1 X24.365 Y33.95 E6.66641
G1 X24.405 Y33.182 E6.68559
G1 X24.524 Y32.422 E6.70478
G1 X24.722 Y31.679 E6.72396
G1 X24.996 Y30.96 E6.74316
G1 X25.343 Y30.274 E6.76233
G1 X25.759 Y29.627 E6.78152
G1 X26.24 Y29.027 E6.8007
G1 X26.781 Y28.48 E6.81989
G0 F3600 X27.173 Y28.666
G1 F1800 X27.763 Y28.207 E6.83854
G1 X28.399 Y27.812 E6.85722
G1 X29.073 Y27.488 E6.87587
G1 X29.778 Y27.238 E6.89453
G1 X30.506 Y27.064 E6.9132
G1 X31.248 Y26.969 E6.93186
G1 X31.765 Y26.95 E6.94477
G1 X48.635 Y26.95 E7.36559
G1 X49.382 Y26.99 E7.38425
G1 X50.12 Y27.109 E7.4029
G1 X50.842 Y27.307 E7.42158
G1 X51.538 Y27.58 E7.44023
G1 X52.201 Y27.927 E7.45889
G1 X52.824 Y28.342 E7.47757
G1 X53.398 Y28.821 E7.49621
G1 X53.919 Y29.358 E7.51488
G1 X54.378 Y29.948 E7.53353
G1 X54.773 Y30.584 E7.5522
G1 X55.097 Y31.258 E7.57086
G1 X55.347 Y31.963 E7.58952
G1 X55.521 Y32.691 E7.60819
G1 X55.616 Y33.433 E7.62685
G1 X55.635 Y33.95 E7.63975
G1 X55.635 Y59.35 E8.27336
G1 X55.595 Y60.097 E8.29202
G1 X55.476 Y60.835 E8.31067
G1 X55.278 Y61.557 E8.32934
G1 X55.005 Y62.253 E8.34799
G1 X54.658 Y62.916 E8.36666
G1 X54.243 Y63.539 E8.38533
G1 X53.764 Y64.113 E8.40398
G1 X53.227 Y64.634 E8.42264
G1 X52.637 Y65.093 E8.44129
G1 X52.001 Y65.488 E8.45997
G1 X51.327 Y65.812 E8.47862
G1 X50.622 Y66.062 E8.49728
G1 X49.894 Y66.236 E8.51595
G1 X49.152 Y66.331 E8.53461
G1 X48.635 Y66.35 E8.54752
G1 X31.765 Y66.35 E8.96834
G1 X31.018 Y66.31 E8.987
G1 X30.28 Y66.191 E9.00565
G1 X29.558 Y65.993 E9.02433
G1 X28.862 Y65.72 E9.04298
G1 X28.199 Y65.373 E9.06164
G1 X27.576 Y64.958 E9.08032
G1 X27.002 Y64.479 E9.09896
G1 X26.481 Y63.942 E9.11763
G1 X26.022 Y63.352 E9.13628
G1 X25.627 Y62.716 E9.15495
G1 X25.303 Y62.042 E9.17361
G1 X25.053 Y61.337 E9.19227
G1 X24.879 Y60.609 E9.21094
G1 X24.784 Y59.867 E9.2296
G1 X24.765 Y59.35 E9.2425
G1 X24.765 Y54.21 E9.37072
G1 X24.805 Y53.463 E9.38938
G1 X24.924 Y52.725 E9.40803
G1 X25.122 Y52.003 E9.4267
G1 X25.395 Y51.307 E9.44535
G1 X25.742 Y50.644 E9.46402
G1 X26.157 Y50.021 E9.48269
G1 X26.636 Y49.447 E9.50134
G1 X27.173 Y48.926 E9.52001
G1 X27.763 Y48.467 E9.53865
G1 X28.399 Y48.072 E9.55733
G1 X29.073 Y47.748 E9.57598
G1 X29.778 Y47.498 E9.59464
G1 X29.866 Y47.477 E9.5969
G1 X29.865 Y44.937 E9.66026
G1 X29.558 Y44.853 E9.6682
G1 X28.862 Y44.58 E9.68685
G1 X28.199 Y44.233 E9.70552
G1 X27.576 Y43.818 E9.72419
G1 X27.002 Y43.339 E9.74284
G1 X26.481 Y42.802 E9.7615
G1 X26.022 Y42.212 E9.78015
G1 X25.627 Y41.576 E9.79883
G1 X25.303 Y40.902 E9.81748
G1 X25.053 Y40.197 E9.83614
G1 X24.879 Y39.469 E9.85481
G1 X24.784 Y38.727 E9.87347
G1 X24.765 Y38.21 E9.88638
G1 X24.765 Y33.95 E9.99264
G1 X24.805 Y33.203 E10.0113
G1 X24.924 Y32.465 E10.02995
G1 X25.122 Y31.743 E10.04863
G1 X25.395 Y31.047 E10.06728
G1 X25.742 Y30.384 E10.08594
G1 X26.157 Y29.761 E10.10462
G1 X26.636 Y29.187 E10.12326
G1 X27.173 Y28.666 E10.14193
G0 F3600 X27.03 Y29.352
G1 F1800 X27.564 Y28.859 E10.16006
G1 X28.149 Y28.429 E10.17817
G1 X28.778 Y28.065 E10.1963
G1 X29.443 Y27.772 E10.21443
G1 X30.136 Y27.554 E10.23255
G1 X30.848 Y27.414 E10.25065
G1 X31.765 Y27.35 E10.27358
G1 X48.635 Y27.35 E10.6944
G1 X49.36 Y27.39 E10.71252
G1 X50.077 Y27.509 E10.73065
G1 X50.776 Y27.707 E10.74877
G1 X51.449 Y27.98 E10.76688
G1 X52.088 Y28.325 E10.785
G1 X52.685 Y28.739 E10.80312
G1 X53.233 Y29.215 E10.82123
G1 X53.726 Y29.749 E10.83936
G1 X54.156 Y30.334 E10.85747
G1 X54.52 Y30.963 E10.8756
G1 X54.813 Y31.628 E10.89373
G1 X55.031 Y32.321 E10.91185
G1 X55.171 Y33.033 E10.92995
G1 X55.235 Y33.95 E10.95288
G1 X55.235 Y59.35 E11.58648
G1 X55.195 Y60.075 E11.6046
G1 X55.076 Y60.792 E11.62273
G1 X54.878 Y61.491 E11.64085
G1 X54.605 Y62.164 E11.65897
G1 X54.26 Y62.803 E11.67708
G1 X53.846 Y63.4 E11.6952
G1 X53.37 Y63.948 E11.71331
G1 X52.836 Y64.441 E11.73144
G1 X52.251 Y64.871 E11.74955
G1 X51.622 Y65.235 E11.76768
G1 X50.957 Y65.528 E11.78581
G1 X50.264 Y65.746 E11.80393
G1 X49.552 Y65.886 E11.82203
G1 X48.635 Y65.95 E11.84496
G1 X31.765 Y65.95 E12.26578
G1 X31.04 Y65.91 E12.2839
G1 X30.323 Y65.791 E12.30203
G1 X29.624 Y65.593 E12.32015
G1 X28.951 Y65.32 E12.33827
G1 X28.312 Y64.975 E12.35638
G1 X27.715 Y64.561 E12.3745
G1 X27.167 Y64.085 E12.39261
G1 X26.674 Y63.551 E12.41074
G1 X26.244 Y62.966 E12.42885
G1 X25.88 Y62.337 E12.44698
G1 X25.587 Y61.672 E12.46511
G1 X25.369 Y60.979 E12.48323
G1 X25.229 Y60.267 E12.50133
G1 X25.165 Y59.35 E12.52426
G1 X25.165 Y54.21 E12.65248
G1 X25.205 Y53.485 E12.67059
G1 X25.324 Y52.768 E12.68872
G1 X25.522 Y52.069 E12.70684
G1 X25.795 Y51.396 E12.72496
G1 X26.14 Y50.757 E12.74308
G1 X26.554 Y50.16 E12.7612
G1 X27.03 Y49.612 E12.7793
G1 X27.564 Y49.119 E12.79743
G1 X28.149 Y48.689 E12.81555
G1 X28.778 Y48.325 E12.83367
G1 X29.443 Y48.032 E12.8518
G1 X30.136 Y47.814 E12.86992
G1 X30.266 Y47.789 E12.87323
G1 X30.265 Y44.635 E12.9519
G1 X29.624 Y44.453 E12.96852
G1 X28.951 Y44.18 E12.98664
G1 X28.312 Y43.835 E13.00476
G1 X27.715 Y43.421 E13.02288
G1 X27.167 Y42.945 E13.04098
G1 X26.674 Y42.411 E13.05911
G1 X26.244 Y41.826 E13.07723
G1 X25.88 Y41.197 E13.09535
G1 X25.587 Y40.532 E13.11348
G1 X25.369 Y39.839 E13.1316
G1 X25.229 Y39.127 E13.1497
G1 X25.165 Y38.21 E13.17263
G1 X25.165 Y33.95 E13.2789
G1 X25.205 Y33.225 E13.29701
G1 X25.324 Y32.508 E13.31514
G1 X25.522 Y31.809 E13.33327
G1 X25.795 Y31.136 E13.35138
G1 X26.14 Y30.497 E13.3695
G1 X26.554 Y29.9 E13.38762
G1 X27.03 Y29.352 E13.40573
G0 F3600 X27.424 Y29.523
G1 F1800 X27.954 Y29.059 E13.4233
G1 X28.533 Y28.659 E13.44085
G1 X29.154 Y28.327 E13.45842
G1 X29.808 Y28.067 E13.47598
G1 X30.488 Y27.883 E13.49355
G1 X31.184 Y27.777 E13.51111
G1 X31.765 Y27.75 E13.52562
G1 X48.635 Y27.75 E13.94644
G1 X49.338 Y27.79 E13.96401
G1 X50.032 Y27.909 E13.98157
G1 X50.707 Y28.107 E13.99912
G1 X51.356 Y28.379 E14.01667
G1 X51.97 Y28.724 E14.03424
G1 X52.541 Y29.135 E14.05179
G1 X53.062 Y29.609 E14.06936
G1 X53.526 Y30.139 E14.08693
G1 X53.926 Y30.718 E14.10449
G1 X54.258 Y31.339 E14.12205
G1 X54.518 Y31.993 E14.13961
G1 X54.702 Y32.673 E14.15718
G1 X54.808 Y33.369 E14.17474
G1 X54.835 Y33.95 E14.18925
G1 X54.835 Y59.35 E14.82286
G1 X54.795 Y60.053 E14.84042
G1 X54.676 Y60.747 E14.85799
G1 X54.478 Y61.422 E14.87554
G1 X54.206 Y62.071 E14.89309
G1 X53.861 Y62.685 E14.91066
G1 X53.45 Y63.256 E14.92821
G1 X52.976 Y63.777 E14.94578
G1 X52.446 Y64.241 E14.96335
G1 X51.867 Y64.641 E14.9809
G1 X51.246 Y64.973 E14.99847
G1 X50.592 Y65.233 E15.01603
G1 X49.912 Y65.417 E15.0336
G1 X49.216 Y65.523 E15.05116
G1 X48.635 Y65.55 E15.06567
G1 X31.765 Y65.55 E15.48649
G1 X31.062 Y65.51 E15.50406
G1 X30.368 Y65.391 E15.52162
G1 X29.693 Y65.193 E15.53917
G1 X29.044 Y64.921 E15.55672
G1 X28.43 Y64.576 E15.57429
G1 X27.859 Y64.165 E15.59184
G1 X27.338 Y63.691 E15.60941
G1 X26.874 Y63.161 E15.62698
G1 X26.474 Y62.582 E15.64454
G1 X26.142 Y61.961 E15.6621
G1 X25.882 Y61.307 E15.67966
G1 X25.698 Y60.627 E15.69723
G1 X25.592 Y59.931 E15.71479
G1 X25.565 Y59.35 E15.7293
G1 X25.565 Y54.21 E15.85752
G1 X25.605 Y53.507 E15.87509
G1 X25.724 Y52.813 E15.89265
G1 X25.922 Y52.138 E15.9102
G1 X26.194 Y51.489 E15.92775
G1 X26.539 Y50.875 E15.94532
G1 X26.95 Y50.304 E15.96287
G1 X27.424 Y49.783 E15.98044
G1 X27.954 Y49.319 E15.99801
G1 X28.533 Y48.919 E16.01557
G1 X29.154 Y48.587 E16.03313
G1 X29.808 Y48.327 E16.05069
G1 X30.488 Y48.143 E16.06826
G1 X30.666 Y48.116 E16.07275
G1 X30.665 Y44.302 E16.16789
G1 X30.368 Y44.251 E16.17541
G1 X29.693 Y44.053 E16.19296
G1 X29.044 Y43.781 E16.21051
G1 X28.43 Y43.436 E16.22808
G1 X27.859 Y43.025 E16.24563
G1 X27.338 Y42.551 E16.2632
G1 X26.874 Y42.021 E16.28077
G1 X26.474 Y41.442 E16.29833
G1 X26.142 Y40.821 E16.31589
G1 X25.882 Y40.167 E16.33345
G1 X25.698 Y39.487 E16.35102
G1 X25.592 Y38.791 E16.36858
G1 X25.565 Y38.21 E16.38309
G1 X25.565 Y33.95 E16.48936
G1 X25.605 Y33.247 E16.50692
G1 X25.724 Y32.553 E16.52449
G1 X25.922 Y31.878 E16.54203
G1 X26.194 Y31.229 E16.55959
G1 X26.539 Y30.615 E16.57716
G1 X26.95 Y30.044 E16.59471
G1 X27.424 Y29.523 E16.61228
G0 F3600 X27.818 Y29.701
G1 F1800 X28.343 Y29.267 E16.62927
G1 X28.915 Y28.898 E16.64625
G1 X29.527 Y28.599 E16.66324
G1 X30.169 Y28.374 E16.68021
G1 X30.834 Y28.225 E16.69721
G1 X31.765 Y28.15 E16.72051
G1 X48.635 Y28.15 E17.14133
G1 X49.315 Y28.19 E17.15832
G1 X49.985 Y28.309 E17.1753
G1 X50.637 Y28.506 E17.19229
G1 X51.261 Y28.778 E17.20927
G1 X51.849 Y29.122 E17.22626
G1 X52.393 Y29.532 E17.24325
G1 X52.884 Y30.003 E17.26023
G1 X53.318 Y30.528 E17.27722
G1 X53.687 Y31.1 E17.2942
G1 X53.986 Y31.712 E17.31119
G1 X54.211 Y32.354 E17.32816
G1 X54.36 Y33.019 E17.34516
G1 X54.435 Y33.95 E17.36846
G1 X54.435 Y59.35 E18.00206
G1 X54.395 Y60.03 E18.01906
G1 X54.276 Y60.7 E18.03603
G1 X54.079 Y61.352 E18.05302
G1 X53.807 Y61.976 E18.07
G1 X53.463 Y62.564 E18.08699
G1 X53.053 Y63.108 E18.10399
G1 X52.582 Y63.599 E18.12096
G1 X52.057 Y64.033 E18.13795
G1 X51.485 Y64.402 E18.15493
G1 X50.873 Y64.701 E18.17192
G1 X50.231 Y64.926 E18.18889
G1 X49.566 Y65.075 E18.20589
G1 X48.635 Y65.15 E18.22919
G1 X31.765 Y65.15 E18.65002
G1 X31.085 Y65.11 E18.66701
G1 X30.415 Y64.991 E18.68398
G1 X29.763 Y64.794 E18.70097
G1 X29.139 Y64.522 E18.71795
G1 X28.551 Y64.178 E18.73495
G1 X28.007 Y63.768 E18.75194
G1 X27.516 Y63.297 E18.76891
G1 X27.082 Y62.772 E18.7859
G1 X26.713 Y62.2 E18.80288
G1 X26.414 Y61.588 E18.81987
G1 X26.189 Y60.946 E18.83684
G1 X26.04 Y60.281 E18.85384
G1 X25.965 Y59.35 E18.87714
G1 X25.965 Y54.21 E19.00536
G1 X26.005 Y53.53 E19.02235
G1 X26.124 Y52.86 E19.03933
G1 X26.321 Y52.208 E19.05632
G1 X26.593 Y51.584 E19.0733
G1 X26.937 Y50.996 E19.09029
G1 X27.347 Y50.452 E19.10728
G1 X27.818 Y49.961 E19.12426
G1 X28.343 Y49.527 E19.14125
G1 X28.915 Y49.158 E19.15823
G1 X29.527 Y48.859 E19.17522
G1 X30.169 Y48.634 E19.19219
G1 X30.834 Y48.485 E19.20919
G1 X31.066 Y48.466 E19.21499
G1 X31.065 Y43.967 E19.32722
G1 X30.415 Y43.851 E19.34369
G1 X29.763 Y43.654 E19.36068
G1 X29.139 Y43.382 E19.37766
G1 X28.551 Y43.038 E19.39466
G1 X28.007 Y42.628 E19.41165
G1 X27.516 Y42.157 E19.42862
G1 X27.082 Y41.632 E19.44561
G1 X26.713 Y41.06 E19.46259
G1 X26.414 Y40.448 E19.47958
G1 X26.189 Y39.806 E19.49655
G1 X26.04 Y39.141 E19.51355
G1 X25.965 Y38.21 E19.53685
G1 X25.965 Y33.95 E19.64312
G1 X26.005 Y33.27 E19.66011
G1 X26.124 Y32.6 E19.67709
G1 X26.321 Y31.948 E19.69408
G1 X26.593 Y31.324 E19.71106
G1 X26.937 Y30.736 E19.72805
G1 X27.347 Y30.192 E19.74504
G1 X27.818 Y29.701 E19.76202
G0 F3600 X28.21 Y29.885
G1 F1800 X28.73 Y29.484 E19.7784
G1 X29.294 Y29.148 E19.79477
G1 X29.896 Y28.884 E19.81117
G1 X30.525 Y28.694 E19.82756
