;FLAVOR:Marlin
;TIME:5958
;Filament used: 2.35269m, 0m
;Layer height: 0.1
;MINX:203.362
;MINY:5.134
;MINZ:0.15
;MAXX:243.962
;MAXY:71.734
;MAXZ:9.95
;Generated with Cura_SteamEngine 4.8.0
T0
M82 ;absolute extrusion mode
;GeeeTech A20M start script
G28 ;home
G90 ;absolute positioning
G1 X0 Y0 Z15 E0 F300 ;go to wait position
M140 S20.0 ;set bed temp
M109 S200.0 ;set extruder temp and wait
G1 Z0.8 F200 ;set extruder height
G1 X220 Y0 E80 F1000 ;purge line
;end of start script
G92 E0
G92 E0
G1 F2100 E-0.8
;LAYER_COUNT:99
;LAYER:0
M107
G0 F3600 X203.402 Y12.145 Z0.15
;TYPE:SKIRT
G1 F2100 E0
G1 F1800 X203.521 Y11.365 E0.01968
G1 X203.719 Y10.6 E0.03939
G1 X203.993 Y9.86 E0.05908
G1 X204.341 Y9.151 E0.07878
G1 X204.759 Y8.48 E0.0985
G1 X205.242 Y7.856 E0.11818
G1 X205.785 Y7.283 E0.13788
G1 X206.384 Y6.768 E0.15758
G1 X207.032 Y6.317 E0.17728
G1 X207.723 Y5.933 E0.197
G1 X208.448 Y5.621 E0.21668
G1 X209.201 Y5.384 E0.23638
G1 X209.975 Y5.225 E0.25609
G1 X210.76 Y5.144 E0.27577
G1 X211.162 Y5.134 E0.2858
G1 X236.162 Y5.134 E0.90943
G1 X236.951 Y5.174 E0.92914
G1 X237.731 Y5.293 E0.94882
G1 X238.496 Y5.491 E0.96853
G1 X239.236 Y5.765 E0.98822
G1 X239.945 Y6.113 E1.00792
G1 X240.616 Y6.531 E1.02764
G1 X241.24 Y7.014 E1.04732
G1 X241.813 Y7.557 E1.06701
G1 X242.328 Y8.156 E1.08672
G1 X242.779 Y8.804 E1.10641
G1 X243.163 Y9.495 E1.12613
G1 X243.475 Y10.22 E1.14582
G1 X243.712 Y10.973 E1.16551
G1 X243.871 Y11.747 E1.18523
G1 X243.952 Y12.532 E1.20491
G1 X243.962 Y12.934 E1.21494
G1 X243.962 Y37.934 E1.83857
G1 X243.952 Y38.532 E1.85349
G1 X243.962 Y38.934 E1.86352
G1 X243.962 Y63.934 E2.48715
G1 X243.922 Y64.723 E2.50685
G1 X243.803 Y65.503 E2.52654
G1 X243.605 Y66.268 E2.54625
G1 X243.331 Y67.008 E2.56593
G1 X242.983 Y67.717 E2.58563
G1 X242.565 Y68.388 E2.60536
G1 X242.082 Y69.012 E2.62504
G1 X241.539 Y69.585 E2.64473
G1 X240.94 Y70.1 E2.66444
G1 X240.292 Y70.551 E2.68413
G1 X239.601 Y70.935 E2.70385
G1 X238.876 Y71.247 E2.72354
G1 X238.123 Y71.484 E2.74323
G1 X237.349 Y71.643 E2.76294
G1 X236.564 Y71.724 E2.78263
G1 X236.162 Y71.734 E2.79266
G1 X211.162 Y71.734 E3.41629
G1 X210.373 Y71.694 E3.43599
G1 X209.593 Y71.575 E3.45568
G1 X208.828 Y71.377 E3.47539
G1 X208.088 Y71.103 E3.49507
G1 X207.379 Y70.755 E3.51477
G1 X206.708 Y70.337 E3.53449
G1 X206.084 Y69.854 E3.55418
G1 X205.511 Y69.311 E3.57387
G1 X204.996 Y68.712 E3.59358
G1 X204.545 Y68.064 E3.61327
G1 X204.161 Y67.373 E3.63299
G1 X203.849 Y66.648 E3.65268
G1 X203.612 Y65.895 E3.67237
G1 X203.453 Y65.121 E3.69208
G1 X203.372 Y64.336 E3.71177
G1 X203.362 Y63.934 E3.7218
G1 X203.362 Y38.934 E4.34543
G1 X203.372 Y38.336 E4.36034
G1 X203.362 Y37.934 E4.37038
G1 X203.362 Y12.934 E4.994
G1 X203.402 Y12.145 E5.01371
G0 F3600 X203.802 Y12.166
G1 F1800 X203.921 Y11.406 E5.0329
G1 X204.119 Y10.663 E5.05208
G1 X204.393 Y9.944 E5.07127
G1 X204.74 Y9.258 E5.09045
G1 X205.156 Y8.611 E5.10964
G1 X205.637 Y8.011 E5.12882
G1 X206.178 Y7.464 E5.14801
G1 X206.773 Y6.976 E5.16721
G1 X207.415 Y6.553 E5.18639
G1 X208.098 Y6.198 E5.20559
G1 X208.813 Y5.917 E5.22475
G1 X209.555 Y5.711 E5.24396
G1 X210.313 Y5.583 E5.26314
G1 X211.162 Y5.534 E5.28435
G1 X236.162 Y5.534 E5.90798
G1 X236.93 Y5.574 E5.92716
G1 X237.69 Y5.693 E5.94635
G1 X238.433 Y5.891 E5.96553
G1 X239.152 Y6.165 E5.98473
G1 X239.838 Y6.512 E6.0039
G1 X240.485 Y6.928 E6.02309
G1 X241.085 Y7.409 E6.04227
G1 X241.632 Y7.95 E6.06147
G1 X242.12 Y8.545 E6.08066
G1 X242.543 Y9.187 E6.09984
G1 X242.898 Y9.87 E6.11904
G1 X243.179 Y10.585 E6.13821
G1 X243.385 Y11.327 E6.15741
G1 X243.513 Y12.085 E6.17659
G1 X243.562 Y12.934 E6.1978
G1 X243.562 Y37.934 E6.82143
G1 X243.535 Y38.46 E6.83457
G1 X243.562 Y38.934 E6.84641
G1 X243.562 Y63.934 E7.47004
G1 X243.522 Y64.702 E7.48922
G1 X243.403 Y65.462 E7.50841
G1 X243.205 Y66.205 E7.52759
G1 X242.931 Y66.924 E7.54679
G1 X242.584 Y67.61 E7.56597
G1 X242.168 Y68.257 E7.58515
G1 X241.687 Y68.857 E7.60434
G1 X241.146 Y69.404 E7.62353
G1 X240.551 Y69.892 E7.64272
G1 X239.909 Y70.315 E7.6619
G1 X239.226 Y70.67 E7.6811
G1 X238.511 Y70.951 E7.70027
G1 X237.769 Y71.157 E7.71948
G1 X237.011 Y71.285 E7.73865
G1 X236.162 Y71.334 E7.75987
G1 X211.162 Y71.334 E8.38349
G1 X210.394 Y71.294 E8.40268
G1 X209.634 Y71.175 E8.42187
G1 X208.891 Y70.977 E8.44105
G1 X208.172 Y70.703 E8.46024
G1 X207.486 Y70.356 E8.47942
G1 X206.839 Y69.94 E8.49861
G1 X206.239 Y69.459 E8.51779
G1 X205.692 Y68.918 E8.53698
G1 X205.204 Y68.323 E8.55618
G1 X204.781 Y67.681 E8.57535
G1 X204.426 Y66.998 E8.59456
G1 X204.145 Y66.283 E8.61372
G1 X203.939 Y65.541 E8.63293
G1 X203.811 Y64.783 E8.65211
G1 X203.762 Y63.934 E8.67332
G1 X203.762 Y38.934 E9.29695
G1 X203.789 Y38.408 E9.31008
G1 X203.762 Y37.934 E9.32193
G1 X203.762 Y12.934 E9.94556
G1 X203.802 Y12.166 E9.96474
G0 F3600 X204.202 Y12.187
G1 F1800 X204.321 Y11.449 E9.98339
G1 X204.519 Y10.727 E10.00206
G1 X204.792 Y10.031 E10.02071
G1 X205.139 Y9.368 E10.03938
G1 X205.554 Y8.745 E10.05805
G1 X206.033 Y8.171 E10.0767
G1 X206.57 Y7.65 E10.09536
G1 X207.16 Y7.191 E10.11401
G1 X207.796 Y6.796 E10.13269
G1 X208.47 Y6.472 E10.15134
G1 X209.175 Y6.222 E10.17
G1 X209.903 Y6.048 E10.18867
G1 X210.645 Y5.953 E10.20733
G1 X211.162 Y5.934 E10.22024
G1 X236.162 Y5.934 E10.84387
G1 X236.909 Y5.974 E10.86253
G1 X237.647 Y6.093 E10.88117
G1 X238.369 Y6.291 E10.89985
G1 X239.065 Y6.564 E10.9185
G1 X239.728 Y6.911 E10.93717
G1 X240.351 Y7.326 E10.95584
G1 X240.925 Y7.805 E10.97449
G1 X241.446 Y8.342 E10.99315
G1 X241.905 Y8.932 E11.0118
G1 X242.3 Y9.568 E11.03047
G1 X242.624 Y10.242 E11.04913
G1 X242.874 Y10.947 E11.06779
G1 X243.048 Y11.675 E11.08646
G1 X243.143 Y12.417 E11.10512
G1 X243.162 Y12.934 E11.11803
G1 X243.162 Y37.934 E11.74165
G1 X243.143 Y38.417 E11.75371
G1 X243.162 Y38.934 E11.76662
G1 X243.162 Y63.934 E12.39024
G1 X243.122 Y64.681 E12.40891
G1 X243.003 Y65.419 E12.42755
G1 X242.805 Y66.141 E12.44623
G1 X242.532 Y66.837 E12.46488
G1 X242.185 Y67.5 E12.48354
G1 X241.77 Y68.123 E12.50222
G1 X241.291 Y68.697 E12.52087
G1 X240.754 Y69.218 E12.53953
G1 X240.164 Y69.677 E12.55818
G1 X239.528 Y70.072 E12.57685
G1 X238.854 Y70.396 E12.59551
G1 X238.149 Y70.646 E12.61417
G1 X237.421 Y70.82 E12.63284
G1 X236.679 Y70.915 E12.6515
G1 X236.162 Y70.934 E12.6644
G1 X211.162 Y70.934 E13.28803
G1 X210.415 Y70.894 E13.30669
G1 X209.677 Y70.775 E13.32534
G1 X208.955 Y70.577 E13.34402
G1 X208.259 Y70.304 E13.36266
G1 X207.596 Y69.957 E13.38133
G1 X206.973 Y69.542 E13.4
G1 X206.399 Y69.063 E13.41865
G1 X205.878 Y68.526 E13.43732
G1 X205.419 Y67.936 E13.45596
G1 X205.024 Y67.3 E13.47464
G1 X204.7 Y66.626 E13.4933
G1 X204.45 Y65.921 E13.51195
G1 X204.276 Y65.193 E13.53063
G1 X204.181 Y64.451 E13.54929
G1 X204.162 Y63.934 E13.56219
G1 X204.162 Y38.934 E14.18582
G1 X204.181 Y38.451 E14.19788
G1 X204.162 Y37.934 E14.21078
G1 X204.162 Y12.934 E14.83441
G1 X204.202 Y12.187 E14.85307
G0 F3600 X204.602 Y12.209
G1 F1800 X204.721 Y11.492 E14.8712
G1 X204.919 Y10.793 E14.88932
G1 X205.192 Y10.12 E14.90744
G1 X205.537 Y9.481 E14.92556
G1 X205.951 Y8.884 E14.94368
G1 X206.427 Y8.336 E14.96178
G1 X206.961 Y7.843 E14.97991
G1 X207.546 Y7.413 E14.99803
G1 X208.175 Y7.049 E15.01615
G1 X208.84 Y6.756 E15.03428
G1 X209.533 Y6.538 E15.0524
G1 X210.245 Y6.398 E15.0705
G1 X211.162 Y6.334 E15.09343
G1 X236.162 Y6.334 E15.71706
G1 X236.887 Y6.374 E15.73517
G1 X237.604 Y6.493 E15.7533
G1 X238.303 Y6.691 E15.77143
G1 X238.976 Y6.964 E15.78954
G1 X239.615 Y7.309 E15.80766
G1 X240.212 Y7.723 E15.82578
G1 X240.76 Y8.199 E15.84389
G1 X241.253 Y8.733 E15.86202
G1 X241.683 Y9.318 E15.88013
G1 X242.047 Y9.947 E15.89826
G1 X242.34 Y10.612 E15.91638
G1 X242.558 Y11.305 E15.93451
G1 X242.698 Y12.017 E15.95261
G1 X242.762 Y12.934 E15.97554
G1 X242.762 Y37.934 E16.59917
G1 X242.731 Y38.492 E16.61311
G1 X242.762 Y38.934 E16.62416
G1 X242.762 Y63.934 E17.24779
G1 X242.722 Y64.659 E17.2659
G1 X242.603 Y65.376 E17.28403
G1 X242.405 Y66.075 E17.30215
G1 X242.132 Y66.748 E17.32027
G1 X241.787 Y67.387 E17.33838
G1 X241.373 Y67.984 E17.35651
G1 X240.897 Y68.532 E17.37461
G1 X240.363 Y69.025 E17.39274
G1 X239.778 Y69.455 E17.41085
G1 X239.149 Y69.819 E17.42898
G1 X238.484 Y70.112 E17.44711
G1 X237.791 Y70.33 E17.46523
G1 X237.079 Y70.47 E17.48333
G1 X236.162 Y70.534 E17.50626
G1 X211.162 Y70.534 E18.12989
G1 X210.437 Y70.494 E18.148
G1 X209.72 Y70.375 E18.16613
G1 X209.021 Y70.177 E18.18426
G1 X208.348 Y69.904 E18.20237
G1 X207.709 Y69.559 E18.22049
G1 X207.112 Y69.145 E18.23861
G1 X206.564 Y68.669 E18.25672
G1 X206.071 Y68.135 E18.27485
G1 X205.641 Y67.55 E18.29296
G1 X205.277 Y66.921 E18.31109
G1 X204.984 Y66.256 E18.32921
G1 X204.766 Y65.563 E18.34734
G1 X204.626 Y64.851 E18.36544
G1 X204.562 Y63.934 E18.38837
G1 X204.562 Y38.934 E19.01199
G1 X204.593 Y38.376 E19.02593
G1 X204.562 Y37.934 E19.03699
G1 X204.562 Y12.934 E19.66062
G1 X204.602 Y12.209 E19.67873
G0 F3600 X205.002 Y12.231
G1 F1800 X205.121 Y11.537 E19.69629
G1 X205.319 Y10.862 E19.71384
G1 X205.591 Y10.213 E19.73139
G1 X205.936 Y9.599 E19.74896
G1 X206.347 Y9.028 E19.76651
G1 X206.821 Y8.507 E19.78408
G1 X207.351 Y8.043 E19.80165
G1 X207.93 Y7.643 E19.81921
G1 X208.551 Y7.311 E19.83677
G1 X209.205 Y7.051 E19.85433
G1 X209.885 Y6.867 E19.8719
G1 X210.581 Y6.761 E19.88946
G1 X211.162 Y6.734 E19.90397
G1 X236.162 Y6.734 E20.5276
G1 X236.865 Y6.774 E20.54517
G1 X237.559 Y6.893 E20.56273
G1 X238.234 Y7.091 E20.58028
G1 X238.883 Y7.363 E20.59783
G1 X239.497 Y7.708 E20.6154
G1 X240.068 Y8.119 E20.63295
G1 X240.589 Y8.593 E20.65052
G1 X241.053 Y9.123 E20.66809
G1 X241.453 Y9.702 E20.68565
G1 X241.785 Y10.323 E20.70321
G1 X242.045 Y10.977 E20.72077
G1 X242.229 Y11.657 E20.73834
G1 X242.335 Y12.353 E20.7559
G1 X242.362 Y12.934 E20.77041
G1 X242.362 Y37.934 E21.39404
G1 X242.336 Y38.384 E21.40528
G1 X242.362 Y38.934 E21.41902
G1 X242.362 Y63.934 E22.04265
G1 X242.322 Y64.637 E22.06021
G1 X242.203 Y65.331 E22.07778
G1 X242.005 Y66.006 E22.09532
G1 X241.733 Y66.655 E22.11288
G1 X241.388 Y67.269 E22.13044
G1 X240.977 Y67.84 E22.14799
G1 X240.503 Y68.361 E22.16556
G1 X239.973 Y68.825 E22.18314
G1 X239.394 Y69.225 E22.20069
G1 X238.773 Y69.557 E22.21826
G1 X238.119 Y69.817 E22.23581
G1 X237.439 Y70.001 E22.25339
G1 X236.743 Y70.107 E22.27095
G1 X236.162 Y70.134 E22.28546
G1 X211.162 Y70.134 E22.90908
G1 X210.459 Y70.094 E22.92665
G1 X209.765 Y69.975 E22.94421
G1 X209.09 Y69.777 E22.96176
G1 X208.441 Y69.505 E22.97931
G1 X207.827 Y69.16 E22.99688
G1 X207.256 Y68.749 E23.01443
G1 X206.735 Y68.275 E23.032
G1 X206.271 Y67.745 E23.04957
G1 X205.871 Y67.166 E23.06713
G1 X205.539 Y66.545 E23.0847
G1 X205.279 Y65.891 E23.10225
G1 X205.095 Y65.211 E23.11982
G1 X204.989 Y64.515 E23.13739
G1 X204.962 Y63.934 E23.15189
G1 X204.962 Y38.934 E23.77552
G1 X204.988 Y38.484 E23.78677
G1 X204.962 Y37.934 E23.8005
G1 X204.962 Y12.934 E24.42413
G1 X205.002 Y12.231 E24.44169
G0 F3600 X205.402 Y12.254
G1 F1800 X205.521 Y11.584 E24.45867
G1 X205.718 Y10.932 E24.47566
G1 X205.99 Y10.308 E24.49264
G1 X206.334 Y9.72 E24.50963
G1 X206.744 Y9.176 E24.52663
G1 X207.215 Y8.685 E24.5436
G1 X207.74 Y8.251 E24.56059
G1 X208.312 Y7.882 E24.57757
G1 X208.924 Y7.583 E24.59456
G1 X209.566 Y7.358 E24.61153
G1 X210.231 Y7.209 E24.62853
G1 X211.162 Y7.134 E24.65183
G1 X236.162 Y7.134 E25.27546
G1 X236.842 Y7.174 E25.29245
G1 X237.512 Y7.293 E25.30942
G1 X238.164 Y7.49 E25.32641
G1 X238.788 Y7.762 E25.34339
G1 X239.376 Y8.106 E25.36039
G1 X239.92 Y8.516 E25.37738
G1 X240.411 Y8.987 E25.39435
G1 X240.845 Y9.512 E25.41134
G1 X241.214 Y10.084 E25.42832
G1 X241.513 Y10.696 E25.44531
G1 X241.738 Y11.338 E25.46228
G1 X241.887 Y12.003 E25.47928
G1 X241.962 Y12.934 E25.50258
G1 X241.962 Y37.934 E26.12621
G1 X241.928 Y38.512 E26.14065
G1 X241.962 Y38.934 E26.15121
G1 X241.962 Y63.934 E26.77484
G1 X241.922 Y64.614 E26.79183
G1 X241.803 Y65.284 E26.80881
G1 X241.606 Y65.936 E26.8258
G1 X241.334 Y66.56 E26.84278
G1 X240.99 Y67.148 E26.85977
G1 X240.58 Y67.692 E26.87677
G1 X240.109 Y68.183 E26.89374
G1 X239.584 Y68.617 E26.91073
G1 X239.012 Y68.986 E26.92771
G1 X238.4 Y69.285 E26.9447
G1 X237.758 Y69.51 E26.96167
G1 X237.093 Y69.659 E26.97867
G1 X236.162 Y69.734 E27.00197
G1 X211.162 Y69.734 E27.6256
G1 X210.482 Y69.694 E27.64259
G1 X209.812 Y69.575 E27.65956
G1 X209.16 Y69.378 E27.67655
G1 X208.536 Y69.106 E27.69353
G1 X207.948 Y68.762 E27.71053
G1 X207.404 Y68.352 E27.72752
G1 X206.913 Y67.881 E27.74449
G1 X206.479 Y67.356 E27.76148
G1 X206.11 Y66.784 E27.77846
G1 X205.811 Y66.172 E27.79546
G1 X205.586 Y65.53 E27.81243
G1 X205.437 Y64.865 E27.82943
G1 X205.362 Y63.934 E27.85272
G1 X205.362 Y38.934 E28.47635
G1 X205.396 Y38.356 E28.49079
G1 X205.362 Y37.934 E28.50136
G1 X205.362 Y12.934 E29.12498
G1 X205.402 Y12.254 E29.14198
G0 F3600 X205.802 Y12.278
G1 F1800 X205.921 Y11.632 E29.15836
G1 X206.118 Y11.005 E29.17476
G1 X206.39 Y10.407 E29.19114
G1 X206.732 Y9.846 E29.20753
G1 X207.14 Y9.331 E29.22392
G1 X207.607 Y8.869 E29.24031
G1 X208.127 Y8.468 E29.25669
G1 X208.691 Y8.132 E29.27307
G1 X209.293 Y7.868 E29.28946
G1 X209.922 Y7.678 E29.30585
G1 X210.569 Y7.567 E29.32223
G1 X211.162 Y7.534 E29.33704
G1 X236.162 Y7.534 E29.96067
G1 X236.818 Y7.574 E29.97707
G1 X237.464 Y7.693 E29.99345
G1 X238.091 Y7.89 E30.00985
G1 X238.689 Y8.162 E30.02623
G1 X239.25 Y8.504 E30.04262
G1 X239.765 Y8.912 E30.05901
G1 X240.227 Y9.379 E30.0754
G1 X240.628 Y9.899 E30.09178
G1 X240.964 Y10.463 E30.10816
G1 X241.228 Y11.065 E30.12456
G1 X241.418 Y11.694 E30.14095
G1 X241.529 Y12.341 E30.15732
G1 X241.562 Y12.934 E30.17214
G1 X241.562 Y37.934 E30.79576
G1 X241.533 Y38.411 E30.80768
G1 X241.562 Y38.934 E30.82075
G1 X241.562 Y63.934 E31.44438
G1 X241.522 Y64.59 E31.46077
G1 X241.403 Y65.236 E31.47716
G1 X241.206 Y65.863 E31.49355
G1 X240.934 Y66.461 E31.50994
G1 X240.592 Y67.022 E31.52633
G1 X240.184 Y67.537 E31.54272
G1 X239.717 Y67.999 E31.55911
G1 X239.197 Y68.4 E31.57549
G1 X238.633 Y68.736 E31.59186
G1 X238.031 Y69 E31.60826
G1 X237.402 Y69.19 E31.62465
G1 X236.755 Y69.301 E31.64103
G1 X236.162 Y69.334 E31.65584
G1 X211.162 Y69.334 E32.27947
G1 X210.506 Y69.294 E32.29586
G1 X209.86 Y69.175 E32.31225
G1 X209.233 Y68.978 E32.32864
G1 X208.635 Y68.706 E32.34503
G1 X208.074 Y68.364 E32.36142
G1 X207.559 Y67.956 E32.37781
G1 X207.097 Y67.489 E32.3942
G1 X206.696 Y66.969 E32.41058
G1 X206.36 Y66.405 E32.42696
G1 X206.096 Y65.803 E32.44335
G1 X205.906 Y65.174 E32.45974
G1 X205.795 Y64.527 E32.47612
G1 X205.762 Y63.934 E32.49093
G1 X205.762 Y38.934 E33.11456
G1 X205.791 Y38.457 E33.12648
G1 X205.762 Y37.934 E33.13955
G1 X205.762 Y12.934 E33.76318
G1 X205.802 Y12.278 E33.77957
G0 F3600 X206.202 Y12.303
G1 F1800 X206.321 Y11.682 E33.79534
G1 X206.518 Y11.082 E33.8111
G1 X206.789 Y10.51 E33.82689
G1 X207.129 Y9.978 E33.84263
G1 X207.535 Y9.493 E33.85841
G1 X207.998 Y9.063 E33.87418
G1 X208.512 Y8.694 E33.88996
G1 X209.068 Y8.394 E33.90572
G1 X209.657 Y8.166 E33.92147
G1 X210.271 Y8.014 E33.93725
G1 X211.162 Y7.934 E33.95957
G1 X236.162 Y7.934 E34.5832
G1 X236.793 Y7.974 E34.59897
G1 X237.414 Y8.093 E34.61474
G1 X238.014 Y8.29 E34.63049
G1 X238.586 Y8.561 E34.64628
G1 X239.118 Y8.901 E34.66203
G1 X239.603 Y9.307 E34.67781
G1 X240.033 Y9.77 E34.69357
G1 X240.402 Y10.284 E34.70936
G1 X240.702 Y10.84 E34.72511
G1 X240.93 Y11.429 E34.74087
G1 X241.082 Y12.043 E34.75665
G1 X241.162 Y12.934 E34.77896
G1 X241.162 Y37.934 E35.40259
G1 X241.125 Y38.52 E35.41724
G1 X241.162 Y38.934 E35.42761
G1 X241.162 Y63.934 E36.05123
G1 X241.122 Y64.565 E36.06701
G1 X241.003 Y65.186 E36.08278
G1 X240.806 Y65.786 E36.09853
G1 X240.535 Y66.358 E36.11432
G1 X240.195 Y66.89 E36.13007
G1 X239.789 Y67.375 E36.14585
G1 X239.326 Y67.805 E36.16161
G1 X238.812 Y68.174 E36.17739
G1 X238.256 Y68.474 E36.19315
G1 X237.667 Y68.702 E36.20891
G1 X237.053 Y68.854 E36.22469
G1 X236.162 Y68.934 E36.247
G1 X211.162 Y68.934 E36.87063
G1 X210.531 Y68.894 E36.8864
G1 X209.91 Y68.775 E36.90218
G1 X209.31 Y68.578 E36.91793
G1 X208.738 Y68.307 E36.93372
G1 X208.206 Y67.967 E36.94947
G1 X207.721 Y67.561 E36.96525
G1 X207.291 Y67.098 E36.98101
G1 X206.922 Y66.584 E36.99679
G1 X206.622 Y66.028 E37.01255
