;FLAVOR:Marlin
;TIME:2395
;Filament used: 0.941108m, 0m
;Layer height: 0.1
;MINX:192.079
;MINY:10.38
;MINZ:0.15
;MAXX:240.643
;MAXY:58.962
;MAXZ:9.95
;Generated with Cura_SteamEngine 4.8.0
T0
M82 ;absolute extrusion mode
;GeeeTech A20M start script
G28 ;home
G90 ;absolute positioning
G1 X0 Y0 Z15 E0 F300 ;go to wait position
M140 S20.0 ;set bed temp
M109 S200.0 ;set extruder temp and wait
G1 Z0.8 F200 ;set extruder height
G1 X220 Y0 E80 F1000 ;purge line
;end of start script
G92 E0
G92 E0
G1 F2100 E-0.8
;LAYER_COUNT:99
;LAYER:0
M107
G0 F3600 X192.326 Y31.097 Z0.15
;TYPE:SKIRT
G1 F2100 E0
G1 F1800 X192.467 Y30.253 E0.02135
G1 X192.864 Y28.479 E0.06669
G1 X193.097 Y27.654 E0.08808
G1 X193.685 Y25.938 E0.13333
G1 X194.01 Y25.138 E0.15487
G1 X194.789 Y23.487 E0.2004
G1 X195.2 Y22.727 E0.22196
G1 X196.146 Y21.19 E0.26698
G1 X196.634 Y20.487 E0.28833
G1 X197.761 Y19.039 E0.3341
G1 X198.324 Y18.392 E0.35549
G1 X199.591 Y17.089 E0.40083
G1 X200.228 Y16.503 E0.42242
G1 X201.621 Y15.357 E0.46742
G1 X202.31 Y14.851 E0.48874
G1 X203.844 Y13.849 E0.53445
G1 X204.593 Y13.417 E0.55601
G1 X206.214 Y12.598 E0.60132
G1 X206.998 Y12.254 E0.62268
G1 X208.701 Y11.617 E0.66803
G1 X209.518 Y11.362 E0.68938
G1 X211.278 Y10.916 E0.73467
G1 X212.126 Y10.751 E0.75622
G1 X213.934 Y10.501 E0.80175
G1 X214.786 Y10.43 E0.82308
G1 X216.589 Y10.38 E0.86807
G1 X217.451 Y10.404 E0.88958
G1 X219.268 Y10.555 E0.93507
G1 X220.12 Y10.673 E0.95652
G1 X221.904 Y11.022 E1.00187
G1 X222.733 Y11.232 E1.0232
G1 X224.467 Y11.774 E1.06852
G1 X225.269 Y12.074 E1.08988
G1 X226.929 Y12.801 E1.13508
G1 X227.697 Y13.189 E1.15655
G1 X229.261 Y14.091 E1.20159
G1 X229.985 Y14.564 E1.22316
G1 X231.463 Y15.651 E1.26892
G1 X232.123 Y16.195 E1.29026
G1 X233.46 Y17.425 E1.33558
G1 X234.058 Y18.038 E1.35694
G1 X235.251 Y19.406 E1.40222
G1 X235.785 Y20.092 E1.4239
G1 X236.823 Y21.591 E1.46939
G1 X237.267 Y22.314 E1.49055
G1 X238.128 Y23.902 E1.53561
G1 X238.498 Y24.685 E1.55722
G1 X239.19 Y26.389 E1.60309
G1 X239.47 Y27.207 E1.62466
G1 X239.962 Y28.952 E1.66989
G1 X240.149 Y29.787 E1.69123
G1 X240.45 Y31.594 E1.73693
G1 X240.544 Y32.451 E1.75844
G1 X240.642 Y34.245 E1.80325
G1 X240.643 Y35.091 E1.82436
G1 X240.546 Y36.884 E1.86915
G1 X240.451 Y37.743 E1.89071
G1 X240.15 Y39.552 E1.93645
G1 X239.962 Y40.393 E1.95795
G1 X239.465 Y42.152 E2.00355
G1 X239.181 Y42.977 E2.02531
G1 X238.486 Y44.681 E2.07122
G1 X238.124 Y45.448 E2.09237
G1 X237.271 Y47.024 E2.13708
G1 X236.821 Y47.755 E2.15849
G1 X235.784 Y49.251 E2.2039
G1 X235.254 Y49.932 E2.22542
G1 X234.06 Y51.302 E2.27076
G1 X233.461 Y51.917 E2.29217
G1 X232.123 Y53.148 E2.33752
G1 X231.46 Y53.694 E2.35895
G1 X229.983 Y54.779 E2.40467
G1 X229.262 Y55.25 E2.42615
G1 X227.7 Y56.151 E2.47113
G1 X226.932 Y56.539 E2.49259
G1 X225.258 Y57.272 E2.53818
G1 X224.448 Y57.574 E2.55974
G1 X222.714 Y58.114 E2.60505
G1 X221.894 Y58.322 E2.62615
G1 X220.122 Y58.669 E2.67119
G1 X219.27 Y58.787 E2.69265
G1 X217.469 Y58.937 E2.73773
G1 X216.576 Y58.962 E2.76002
G1 X214.807 Y58.914 E2.80416
G1 X213.952 Y58.844 E2.82556
G1 X212.127 Y58.592 E2.87152
G1 X211.285 Y58.428 E2.89291
G1 X209.526 Y57.984 E2.93817
G1 X208.699 Y57.725 E2.95979
G1 X206.996 Y57.087 E3.00515
G1 X206.22 Y56.747 E3.02629
G1 X204.598 Y55.929 E3.0716
G1 X203.845 Y55.496 E3.09327
G1 X202.335 Y54.51 E3.13825
G1 X201.62 Y53.984 E3.1604
G1 X200.217 Y52.829 E3.20573
G1 X199.58 Y52.242 E3.22734
G1 X198.314 Y50.939 E3.27266
G1 X197.745 Y50.285 E3.29428
G1 X196.617 Y48.831 E3.34018
G1 X196.134 Y48.132 E3.36138
G1 X195.19 Y46.595 E3.40637
G1 X194.78 Y45.838 E3.42785
G1 X194.009 Y44.202 E3.47296
G1 X193.686 Y43.405 E3.49442
G1 X193.098 Y41.689 E3.53967
G1 X192.866 Y40.868 E3.56095
G1 X192.468 Y39.093 E3.60632
G1 X192.326 Y38.238 E3.62794
G1 X192.126 Y36.418 E3.67362
G1 X192.079 Y35.566 E3.6949
G1 X192.079 Y33.761 E3.73993
G1 X192.126 Y32.902 E3.76139
G1 X192.326 Y31.097 E3.80669
G0 F3600 X192.724 Y31.141
G1 F1800 X192.858 Y30.34 E3.82695
G1 X193.255 Y28.566 E3.8723
G1 X193.476 Y27.783 E3.89259
G1 X194.064 Y26.067 E3.93784
G1 X194.372 Y25.308 E3.95827
G1 X195.151 Y23.657 E4.00381
G1 X195.541 Y22.936 E4.02426
G1 X196.487 Y21.399 E4.06928
G1 X196.949 Y20.733 E4.0895
G1 X198.076 Y19.285 E4.13527
G1 X198.611 Y18.671 E4.15559
G1 X199.878 Y17.368 E4.20092
G1 X200.482 Y16.812 E4.2214
G1 X201.875 Y15.666 E4.2664
G1 X202.529 Y15.186 E4.28663
G1 X204.063 Y14.184 E4.33234
G1 X204.773 Y13.774 E4.35279
G1 X206.394 Y12.955 E4.3981
G1 X207.138 Y12.629 E4.41836
G1 X208.841 Y11.992 E4.46372
G1 X209.616 Y11.75 E4.48397
G1 X211.376 Y11.304 E4.52926
G1 X212.18 Y11.147 E4.54969
G1 X213.988 Y10.897 E4.59522
G1 X214.797 Y10.83 E4.61547
G1 X216.6 Y10.78 E4.66047
G1 X217.418 Y10.802 E4.68088
G1 X219.235 Y10.953 E4.72636
G1 X220.043 Y11.066 E4.74671
G1 X221.827 Y11.415 E4.79206
G1 X222.614 Y11.614 E4.81231
G1 X224.348 Y12.156 E4.85763
G1 X225.109 Y12.441 E4.8779
G1 X226.769 Y13.168 E4.9231
G1 X227.497 Y13.536 E4.94345
G1 X229.061 Y14.438 E4.98849
G1 X229.748 Y14.887 E5.00896
G1 X231.226 Y15.974 E5.05473
G1 X231.852 Y16.489 E5.07495
G1 X233.189 Y17.719 E5.12027
G1 X233.756 Y18.301 E5.14054
G1 X234.949 Y19.669 E5.18581
G1 X235.456 Y20.32 E5.2064
G1 X236.494 Y21.819 E5.25188
G1 X236.915 Y22.505 E5.27196
G1 X237.776 Y24.093 E5.31702
G1 X238.127 Y24.836 E5.33752
G1 X238.819 Y26.54 E5.38339
G1 X239.085 Y27.316 E5.40386
G1 X239.577 Y29.061 E5.44908
G1 X239.754 Y29.853 E5.46933
G1 X240.055 Y31.66 E5.51502
G1 X240.145 Y32.472 E5.5354
G1 X240.243 Y34.266 E5.58022
G1 X240.243 Y35.07 E5.60028
G1 X240.146 Y36.863 E5.64507
G1 X240.057 Y37.678 E5.66552
G1 X239.756 Y39.487 E5.71127
G1 X239.577 Y40.284 E5.73164
G1 X239.08 Y42.043 E5.77724
G1 X238.811 Y42.826 E5.79789
G1 X238.116 Y44.53 E5.8438
G1 X237.772 Y45.257 E5.86386
G1 X236.919 Y46.833 E5.90856
G1 X236.493 Y47.527 E5.92888
G1 X235.456 Y49.023 E5.97428
G1 X234.953 Y49.669 E5.99471
G1 X233.759 Y51.039 E6.04004
G1 X233.19 Y51.623 E6.06038
G1 X231.852 Y52.854 E6.10573
G1 X231.223 Y53.372 E6.12606
G1 X229.746 Y54.457 E6.17178
G1 X229.062 Y54.903 E6.19215
G1 X227.5 Y55.804 E6.23713
G1 X226.771 Y56.173 E6.25751
G1 X225.097 Y56.906 E6.30309
G1 X224.329 Y57.192 E6.32354
G1 X222.595 Y57.732 E6.36884
G1 X221.817 Y57.929 E6.38886
G1 X220.045 Y58.276 E6.4339
G1 X219.237 Y58.388 E6.45425
G1 X217.436 Y58.538 E6.49933
G1 X216.587 Y58.562 E6.52052
G1 X214.818 Y58.514 E6.56466
G1 X214.007 Y58.447 E6.58496
G1 X212.182 Y58.195 E6.63092
G1 X211.383 Y58.04 E6.65122
G1 X209.624 Y57.596 E6.69648
G1 X208.839 Y57.351 E6.71699
G1 X207.136 Y56.713 E6.76236
G1 X206.4 Y56.39 E6.78241
G1 X204.778 Y55.572 E6.82772
G1 X204.064 Y55.161 E6.84827
G1 X202.554 Y54.175 E6.89326
G1 X201.874 Y53.675 E6.91431
G1 X200.471 Y52.52 E6.95964
G1 X199.867 Y51.964 E6.98012
G1 X198.601 Y50.661 E7.02544
G1 X198.061 Y50.04 E7.04597
G1 X196.933 Y48.586 E7.09188
G1 X196.474 Y47.923 E7.11199
G1 X195.53 Y46.386 E7.15699
G1 X195.142 Y45.668 E7.17734
G1 X194.371 Y44.032 E7.22246
G1 X194.065 Y43.276 E7.2428
G1 X193.477 Y41.56 E7.28805
G1 X193.256 Y40.78 E7.30828
G1 X192.858 Y39.005 E7.35365
G1 X192.723 Y38.194 E7.37416
G1 X192.523 Y36.374 E7.41984
G1 X192.479 Y35.566 E7.44002
G1 X192.479 Y33.761 E7.48505
G1 X192.524 Y32.946 E7.50541
G1 X192.724 Y31.141 E7.55071
G0 F3600 X193.122 Y31.185
G1 F1800 X193.248 Y30.427 E7.56988
G1 X193.645 Y28.653 E7.61522
G1 X193.854 Y27.913 E7.63441
G1 X194.442 Y26.197 E7.67965
G1 X194.733 Y25.479 E7.69898
G1 X195.512 Y23.828 E7.74452
G1 X195.882 Y23.146 E7.76387
G1 X196.828 Y21.609 E7.80889
G1 X197.265 Y20.979 E7.82802
G1 X198.392 Y19.531 E7.87379
G1 X198.897 Y18.95 E7.893
G1 X200.164 Y17.647 E7.93833
G1 X200.736 Y17.121 E7.95772
G1 X202.129 Y15.975 E8.00271
G1 X202.748 Y15.52 E8.02188
G1 X204.282 Y14.518 E8.06758
G1 X204.953 Y14.131 E8.0869
G1 X206.574 Y13.312 E8.13221
G1 X207.279 Y13.004 E8.1514
G1 X208.982 Y12.367 E8.19676
G1 X209.714 Y12.137 E8.2159
G1 X211.474 Y11.691 E8.26119
G1 X212.235 Y11.543 E8.28053
G1 X214.043 Y11.293 E8.32606
G1 X214.808 Y11.23 E8.3452
G1 X216.611 Y11.18 E8.3902
G1 X217.385 Y11.201 E8.40951
G1 X219.202 Y11.352 E8.45499
G1 X219.966 Y11.458 E8.47423
G1 X221.75 Y11.807 E8.51958
G1 X222.494 Y11.996 E8.53873
G1 X224.228 Y12.538 E8.58405
G1 X224.948 Y12.807 E8.60322
G1 X226.608 Y13.534 E8.64843
G1 X227.297 Y13.882 E8.66768
G1 X228.861 Y14.784 E8.71272
G1 X229.511 Y15.209 E8.73209
G1 X230.989 Y16.296 E8.77786
G1 X231.581 Y16.783 E8.79698
G1 X232.918 Y18.013 E8.8423
G1 X233.455 Y18.564 E8.86149
G1 X234.648 Y19.932 E8.90677
G1 X235.127 Y20.548 E8.92623
G1 X236.165 Y22.047 E8.97172
G1 X236.564 Y22.696 E8.99072
G1 X237.425 Y24.284 E9.03578
G1 X237.757 Y24.986 E9.05515
G1 X238.449 Y26.69 E9.10103
G1 X238.7 Y27.424 E9.12038
G1 X239.192 Y29.169 E9.16561
G1 X239.36 Y29.919 E9.18478
G1 X239.661 Y31.726 E9.23048
G1 X239.746 Y32.494 E9.24975
G1 X239.844 Y34.288 E9.29457
G1 X239.844 Y35.048 E9.31353
G1 X239.747 Y36.841 E9.35832
G1 X239.662 Y37.612 E9.37767
G1 X239.361 Y39.421 E9.42341
G1 X239.192 Y40.175 E9.44269
G1 X238.695 Y41.934 E9.48829
G1 X238.441 Y42.675 E9.50783
G1 X237.746 Y44.379 E9.55373
G1 X237.42 Y45.067 E9.57272
G1 X236.567 Y46.643 E9.61743
G1 X236.164 Y47.299 E9.63663
G1 X235.127 Y48.795 E9.68204
G1 X234.651 Y49.406 E9.70136
G1 X233.457 Y50.776 E9.74669
G1 X232.919 Y51.328 E9.76592
G1 X231.581 Y52.559 E9.81127
G1 X230.986 Y53.049 E9.8305
G1 X229.509 Y54.134 E9.87622
G1 X228.863 Y54.557 E9.89548
G1 X227.301 Y55.458 E9.94046
G1 X226.611 Y55.806 E9.95974
G1 X224.937 Y56.539 E10.00532
G1 X224.21 Y56.81 E10.02468
G1 X222.476 Y57.35 E10.06998
G1 X221.74 Y57.537 E10.08892
G1 X219.968 Y57.884 E10.13397
G1 X219.204 Y57.99 E10.15321
G1 X217.403 Y58.14 E10.19829
G1 X216.598 Y58.162 E10.21838
G1 X214.829 Y58.114 E10.26252
G1 X214.062 Y58.051 E10.28172
G1 X212.237 Y57.799 E10.32768
G1 X211.481 Y57.652 E10.34689
G1 X209.722 Y57.208 E10.39214
G1 X208.979 Y56.976 E10.41156
G1 X207.276 Y56.338 E10.45692
G1 X206.58 Y56.033 E10.47588
G1 X204.958 Y55.215 E10.52119
G1 X204.283 Y54.826 E10.54063
G1 X202.773 Y53.84 E10.58561
G1 X202.128 Y53.366 E10.60558
G1 X200.725 Y52.211 E10.65091
G1 X200.153 Y51.685 E10.6703
G1 X198.887 Y50.382 E10.71562
G1 X198.377 Y49.795 E10.73501
G1 X197.249 Y48.341 E10.78092
G1 X196.815 Y47.713 E10.79996
G1 X195.871 Y46.176 E10.84496
G1 X195.504 Y45.497 E10.86421
G1 X194.733 Y43.861 E10.90932
G1 X194.443 Y43.146 E10.92857
G1 X193.855 Y41.43 E10.97382
G1 X193.647 Y40.693 E10.99292
G1 X193.249 Y38.918 E11.0383
G1 X193.121 Y38.151 E11.0577
G1 X192.921 Y36.331 E11.10337
G1 X192.879 Y35.566 E11.12248
G1 X192.879 Y33.761 E11.16751
G1 X192.922 Y32.99 E11.18677
G1 X193.122 Y31.185 E11.23207
G0 F3600 X193.519 Y31.229
G1 F1800 X193.638 Y30.515 E11.25013
G1 X194.035 Y28.741 E11.29548
G1 X194.232 Y28.043 E11.31357
G1 X194.82 Y26.327 E11.35882
G1 X195.095 Y25.65 E11.37705
G1 X195.874 Y23.999 E11.42258
G1 X196.222 Y23.356 E11.44082
G1 X197.168 Y21.819 E11.48584
G1 X197.581 Y21.224 E11.50391
G1 X198.708 Y19.776 E11.54968
G1 X199.184 Y19.229 E11.56777
G1 X200.451 Y17.926 E11.61311
G1 X200.99 Y17.43 E11.63138
G1 X202.383 Y16.284 E11.67637
G1 X202.967 Y15.855 E11.69445
G1 X204.501 Y14.853 E11.74016
G1 X205.134 Y14.488 E11.75838
G1 X206.755 Y13.669 E11.80369
G1 X207.419 Y13.378 E11.82177
G1 X209.122 Y12.741 E11.86713
G1 X209.813 Y12.525 E11.88519
G1 X211.573 Y12.079 E11.93048
G1 X212.29 Y11.939 E11.9487
G1 X214.098 Y11.689 E11.99423
G1 X214.819 Y11.63 E12.01228
G1 X216.622 Y11.58 E12.05727
G1 X217.352 Y11.6 E12.07549
G1 X219.169 Y11.751 E12.12097
G1 X219.889 Y11.851 E12.1391
G1 X221.673 Y12.2 E12.18445
G1 X222.375 Y12.378 E12.20251
G1 X224.109 Y12.92 E12.24783
G1 X224.788 Y13.173 E12.26591
G1 X226.448 Y13.9 E12.31111
G1 X227.097 Y14.229 E12.32926
G1 X228.661 Y15.131 E12.3743
G1 X229.274 Y15.531 E12.39256
G1 X230.752 Y16.618 E12.43833
G1 X231.31 Y17.078 E12.45637
G1 X232.647 Y18.308 E12.50168
G1 X233.153 Y18.827 E12.51977
G1 X234.346 Y20.195 E12.56504
G1 X234.798 Y20.776 E12.58341
G1 X235.836 Y22.275 E12.62889
G1 X236.212 Y22.886 E12.64679
G1 X237.073 Y24.474 E12.69185
G1 X237.386 Y25.137 E12.71014
G1 X238.078 Y26.841 E12.75601
G1 X238.315 Y27.533 E12.77426
G1 X238.807 Y29.278 E12.81949
G1 X238.965 Y29.985 E12.83756
G1 X239.266 Y31.792 E12.88325
G1 X239.346 Y32.516 E12.90142
G1 X239.444 Y34.31 E12.94624
G1 X239.444 Y35.027 E12.96413
G1 X239.347 Y36.82 E13.00892
G1 X239.267 Y37.546 E13.02714
G1 X238.966 Y39.355 E13.07289
G1 X238.807 Y40.067 E13.09108
G1 X238.31 Y41.826 E13.13668
G1 X238.07 Y42.524 E13.15509
G1 X237.375 Y44.228 E13.201
G1 X237.068 Y44.877 E13.21891
G1 X236.215 Y46.453 E13.26361
G1 X235.835 Y47.071 E13.28171
G1 X234.798 Y48.567 E13.32711
G1 X234.35 Y49.143 E13.34532
G1 X233.156 Y50.513 E13.39065
G1 X232.649 Y51.034 E13.40878
G1 X231.311 Y52.265 E13.45414
G1 X230.749 Y52.727 E13.47229
G1 X229.272 Y53.812 E13.518
G1 X228.663 Y54.21 E13.53615
G1 X227.101 Y55.111 E13.58113
G1 X226.45 Y55.44 E13.59933
G1 X224.776 Y56.173 E13.64491
G1 X224.091 Y56.429 E13.66315
G1 X222.357 Y56.969 E13.70846
G1 X221.663 Y57.144 E13.72631
G1 X219.891 Y57.491 E13.77135
G1 X219.171 Y57.591 E13.78949
G1 X217.37 Y57.741 E13.83457
G1 X216.609 Y57.763 E13.85356
G1 X214.84 Y57.715 E13.8977
G1 X214.116 Y57.655 E13.91583
G1 X212.291 Y57.403 E13.96178
G1 X211.579 Y57.264 E13.97988
G1 X209.82 Y56.82 E14.02513
G1 X209.12 Y56.602 E14.04342
G1 X207.417 Y55.964 E14.08879
G1 X206.76 Y55.676 E14.10668
G1 X205.138 Y54.858 E14.152
G1 X204.502 Y54.491 E14.17031
G1 X202.992 Y53.505 E14.2153
G1 X202.382 Y53.057 E14.23418
G1 X200.979 Y51.902 E14.27951
G1 X200.44 Y51.406 E14.29778
G1 X199.174 Y50.103 E14.3431
G1 X198.693 Y49.55 E14.36139
G1 X197.565 Y48.096 E14.40729
G1 X197.156 Y47.504 E14.42524
G1 X196.212 Y45.967 E14.47023
G1 X195.866 Y45.327 E14.48838
G1 X195.095 Y43.691 E14.5335
G1 X194.821 Y43.016 E14.55167
G1 X194.233 Y41.3 E14.59692
G1 X194.037 Y40.605 E14.61493
G1 X193.639 Y38.83 E14.66031
G1 X193.518 Y38.107 E14.6786
G1 X193.318 Y36.287 E14.72427
G1 X193.279 Y35.566 E14.74228
G1 X193.279 Y33.761 E14.78731
G1 X193.319 Y33.034 E14.80547
G1 X193.519 Y31.229 E14.85077
G0 F3600 X193.917 Y31.273
G1 F1800 X194.029 Y30.602 E14.86774
G1 X194.426 Y28.828 E14.91309
G1 X194.611 Y28.172 E14.93009
G1 X195.199 Y26.456 E14.97534
G1 X195.457 Y25.82 E14.99246
G1 X196.236 Y24.169 E15.038
G1 X196.563 Y23.565 E15.05513
G1 X197.509 Y22.028 E15.10015
G1 X197.896 Y21.47 E15.11709
G1 X199.023 Y20.022 E15.16286
G1 X199.471 Y19.508 E15.17987
G1 X200.738 Y18.205 E15.22521
G1 X201.244 Y17.739 E15.24237
G1 X202.637 Y16.593 E15.28736
G1 X203.185 Y16.19 E15.30433
G1 X204.719 Y15.188 E15.35004
G1 X205.314 Y14.845 E15.36717
G1 X206.935 Y14.026 E15.41247
G1 X207.559 Y13.753 E15.42946
G1 X209.262 Y13.116 E15.47482
G1 X209.911 Y12.913 E15.49178
G1 X211.671 Y12.467 E15.53707
G1 X212.345 Y12.335 E15.55421
G1 X214.153 Y12.085 E15.59974
G1 X214.83 Y12.029 E15.61668
G1 X216.633 Y11.979 E15.66168
G1 X217.318 Y11.998 E15.67877
G1 X219.135 Y12.149 E15.72425
G1 X219.812 Y12.243 E15.7413
G1 X221.596 Y12.592 E15.78665
G1 X222.256 Y12.759 E15.80363
G1 X223.99 Y13.301 E15.84895
G1 X224.627 Y13.54 E15.86592
G1 X226.287 Y14.267 E15.91113
G1 X226.897 Y14.575 E15.92817
G1 X228.461 Y15.477 E15.97321
G1 X229.037 Y15.853 E15.99037
G1 X230.515 Y16.94 E16.03613
G1 X231.04 Y17.372 E16.05309
G1 X232.377 Y18.602 E16.09841
G1 X232.852 Y19.09 E16.1154
G1 X234.045 Y20.458 E16.16068
G1 X234.469 Y21.003 E16.1779
G1 X235.507 Y22.502 E16.22339
G1 X235.86 Y23.077 E16.24022
G1 X236.721 Y24.665 E16.28528
G1 X237.015 Y25.287 E16.30244
G1 X237.707 Y26.991 E16.34832
G1 X237.93 Y27.642 E16.36548
G1 X238.422 Y29.387 E16.41071
G1 X238.571 Y30.05 E16.42766
G1 X238.872 Y31.857 E16.47336
G1 X238.947 Y32.538 E16.49045
G1 X239.045 Y34.332 E16.53526
G1 X239.045 Y35.005 E16.55205
G1 X238.948 Y36.798 E16.59684
G1 X238.873 Y37.481 E16.61398
G1 X238.572 Y39.29 E16.65973
G1 X238.422 Y39.958 E16.67681
G1 X237.925 Y41.717 E16.72241
G1 X237.7 Y42.372 E16.73968
G1 X237.005 Y44.076 E16.78559
G1 X236.717 Y44.686 E16.80241
G1 X235.864 Y46.262 E16.84712
G1 X235.507 Y46.843 E16.86413
G1 X234.47 Y48.339 E16.90953
G1 X234.048 Y48.881 E16.92667
G1 X232.854 Y50.251 E16.972
